<?xml version="1.0" encoding="UTF-8"?>
<map version="1.10" tiledversion="1.12.0" orientation="orthogonal" renderorder="right-down" width="80" height="80" tilewidth="32" tileheight="32" infinite="0" nextlayerid="5" nextobjectid="2">
 <tileset firstgid="1" name="terrains" tilewidth="32" tileheight="32" tilecount="483" columns="21">
  <image source="../tiles/terrain.png" width="672" height="736"/>
  <wangsets>
   <wangset name="Grass" type="corner" tile="190">
    <wangcolor name="Grass" color="#ff0000" tile="-1" probability="1"/>
    <wangcolor name="Water" color="#00ff00" tile="-1" probability="1"/>
    <wangtile tileid="127" wangid="0,1,0,0,0,1,0,1"/>
    <wangtile tileid="128" wangid="0,1,0,1,0,0,0,1"/>
    <wangtile tileid="148" wangid="0,0,0,1,0,1,0,1"/>
    <wangtile tileid="149" wangid="0,1,0,1,0,1,0,0"/>
    <wangtile tileid="168" wangid="0,0,0,1,0,0,0,0"/>
    <wangtile tileid="169" wangid="0,0,0,1,0,1,0,0"/>
    <wangtile tileid="170" wangid="0,0,0,0,0,1,0,0"/>
    <wangtile tileid="189" wangid="0,1,0,1,0,0,0,0"/>
    <wangtile tileid="190" wangid="0,1,0,1,0,1,0,1"/>
    <wangtile tileid="191" wangid="0,0,0,0,0,1,0,1"/>
    <wangtile tileid="210" wangid="0,1,0,0,0,0,0,0"/>
    <wangtile tileid="211" wangid="0,1,0,0,0,0,0,1"/>
    <wangtile tileid="212" wangid="0,0,0,0,0,0,0,1"/>
    <wangtile tileid="259" wangid="0,2,0,1,0,2,0,2"/>
    <wangtile tileid="260" wangid="0,2,0,2,0,1,0,2"/>
    <wangtile tileid="280" wangid="0,1,0,2,0,2,0,2"/>
    <wangtile tileid="281" wangid="0,2,0,2,0,2,0,1"/>
    <wangtile tileid="300" wangid="0,1,0,2,0,1,0,1"/>
    <wangtile tileid="301" wangid="0,1,0,2,0,2,0,1"/>
    <wangtile tileid="302" wangid="0,1,0,1,0,2,0,1"/>
    <wangtile tileid="321" wangid="0,2,0,2,0,1,0,1"/>
    <wangtile tileid="322" wangid="0,2,0,2,0,2,0,2"/>
    <wangtile tileid="323" wangid="0,1,0,1,0,2,0,2"/>
    <wangtile tileid="342" wangid="0,2,0,1,0,1,0,1"/>
    <wangtile tileid="343" wangid="0,2,0,1,0,1,0,2"/>
    <wangtile tileid="344" wangid="0,1,0,1,0,1,0,2"/>
   </wangset>
   <wangset name="Light Dirt" type="corner" tile="64">
    <wangcolor name="" color="#ff0000" tile="-1" probability="1"/>
    <wangtile tileid="1" wangid="0,1,0,0,0,1,0,1"/>
    <wangtile tileid="2" wangid="0,1,0,1,0,0,0,1"/>
    <wangtile tileid="22" wangid="0,0,0,1,0,1,0,1"/>
    <wangtile tileid="23" wangid="0,1,0,1,0,1,0,0"/>
    <wangtile tileid="42" wangid="0,0,0,1,0,0,0,0"/>
    <wangtile tileid="43" wangid="0,0,0,1,0,1,0,0"/>
    <wangtile tileid="44" wangid="0,0,0,0,0,1,0,0"/>
    <wangtile tileid="63" wangid="0,1,0,1,0,0,0,0"/>
    <wangtile tileid="64" wangid="0,1,0,1,0,1,0,1"/>
    <wangtile tileid="65" wangid="0,0,0,0,0,1,0,1"/>
    <wangtile tileid="84" wangid="0,1,0,0,0,0,0,0"/>
    <wangtile tileid="85" wangid="0,1,0,0,0,0,0,1"/>
    <wangtile tileid="86" wangid="0,0,0,0,0,0,0,1"/>
   </wangset>
   <wangset name="Sand" type="corner" tile="319">
    <wangcolor name="Sand" color="#ff0000" tile="-1" probability="1"/>
    <wangcolor name="Water" color="#00ff00" tile="-1" probability="1"/>
    <wangtile tileid="253" wangid="0,1,0,0,0,1,0,1"/>
    <wangtile tileid="254" wangid="0,1,0,1,0,0,0,1"/>
    <wangtile tileid="256" wangid="0,1,0,2,0,1,0,1"/>
    <wangtile tileid="257" wangid="0,1,0,1,0,2,0,1"/>
    <wangtile tileid="274" wangid="0,0,0,1,0,1,0,1"/>
    <wangtile tileid="275" wangid="0,1,0,1,0,1,0,0"/>
    <wangtile tileid="277" wangid="0,2,0,1,0,1,0,1"/>
    <wangtile tileid="278" wangid="0,1,0,1,0,1,0,2"/>
    <wangtile tileid="294" wangid="0,0,0,1,0,0,0,0"/>
    <wangtile tileid="295" wangid="0,0,0,1,0,1,0,0"/>
    <wangtile tileid="296" wangid="0,0,0,0,0,1,0,0"/>
    <wangtile tileid="297" wangid="0,2,0,1,0,2,0,2"/>
    <wangtile tileid="298" wangid="0,2,0,1,0,1,0,2"/>
    <wangtile tileid="299" wangid="0,2,0,2,0,1,0,2"/>
    <wangtile tileid="315" wangid="0,1,0,1,0,0,0,0"/>
    <wangtile tileid="316" wangid="0,1,0,1,0,1,0,1"/>
    <wangtile tileid="317" wangid="0,0,0,0,0,1,0,1"/>
    <wangtile tileid="318" wangid="0,1,0,1,0,2,0,2"/>
    <wangtile tileid="319" wangid="0,1,0,1,0,1,0,1"/>
    <wangtile tileid="320" wangid="0,2,0,2,0,1,0,1"/>
    <wangtile tileid="336" wangid="0,1,0,0,0,0,0,0"/>
    <wangtile tileid="337" wangid="0,1,0,0,0,0,0,1"/>
    <wangtile tileid="338" wangid="0,0,0,0,0,0,0,1"/>
    <wangtile tileid="339" wangid="0,1,0,2,0,2,0,2"/>
    <wangtile tileid="340" wangid="0,1,0,2,0,2,0,1"/>
    <wangtile tileid="341" wangid="0,2,0,2,0,2,0,1"/>
   </wangset>
  </wangsets>
 </tileset>
 <layer id="1" name="Dirt" width="80" height="80">
  <data encoding="csv">
108,108,106,107,108,107,106,106,107,108,106,106,108,106,107,107,107,108,107,107,108,106,106,107,108,106,108,108,106,107,107,108,108,107,108,107,107,107,106,108,107,107,106,108,106,107,108,106,106,107,107,106,108,106,108,108,107,107,108,106,108,107,108,108,107,106,107,106,107,107,106,107,107,108,108,107,108,106,106,107,
107,108,108,106,108,108,106,107,107,106,106,107,108,106,107,106,108,108,106,106,106,106,108,106,108,108,106,106,107,106,108,107,106,106,107,108,106,108,106,108,108,108,107,107,107,106,107,106,107,106,107,106,106,107,107,106,107,106,108,106,106,107,108,107,106,107,107,106,108,107,108,107,108,106,106,107,106,106,107,107,
107,106,107,108,107,108,108,107,107,108,106,106,108,108,108,108,106,106,107,108,108,107,107,106,107,106,107,107,108,107,108,108,107,107,108,106,108,108,106,106,107,108,106,106,107,106,108,107,106,106,108,106,108,106,106,108,106,107,106,107,108,108,107,108,107,107,107,106,106,108,108,106,107,106,106,108,107,106,106,106,
108,108,108,108,107,106,106,108,106,106,106,106,107,106,108,108,106,108,108,107,107,108,107,108,106,106,107,106,108,106,107,106,108,107,108,106,106,107,108,107,106,108,107,108,106,107,108,106,106,108,106,106,106,108,107,106,106,106,108,107,106,106,107,106,106,107,106,108,106,108,106,108,107,107,107,107,106,106,107,107,
108,106,108,108,108,107,107,107,108,106,108,107,106,108,107,108,106,107,107,106,106,106,106,108,107,108,106,106,106,108,107,107,108,108,108,108,107,107,107,106,108,106,107,108,108,107,107,108,106,106,106,108,108,106,107,107,106,107,106,107,106,108,106,108,108,107,108,108,107,108,106,107,106,108,107,108,106,107,106,106,
106,108,108,108,106,108,106,107,106,108,107,108,108,106,108,108,107,108,108,108,106,107,108,108,106,107,107,107,107,108,108,108,108,108,106,107,106,107,108,108,108,108,108,108,108,108,107,106,106,107,108,108,108,106,107,108,108,108,108,107,106,106,107,107,107,108,107,107,108,108,107,108,107,108,107,108,107,107,107,108,
108,106,106,108,107,106,106,108,107,108,108,108,106,106,106,108,106,107,107,106,106,106,106,108,106,106,106,106,106,108,107,108,106,107,108,108,107,106,108,106,107,106,108,106,107,106,107,107,106,106,108,107,106,107,106,107,107,108,106,106,106,108,107,107,107,108,108,106,106,106,107,108,108,106,106,106,107,108,106,107,
107,106,107,106,106,106,107,108,107,108,108,107,107,107,106,107,106,108,108,107,108,107,106,107,107,106,107,106,108,107,106,107,107,108,106,107,106,108,107,108,107,108,107,107,106,106,106,107,106,106,107,107,107,107,108,106,107,106,108,106,108,108,106,108,107,106,107,108,108,106,106,108,107,106,106,106,108,106,107,107,
106,106,107,106,107,108,107,108,107,108,106,106,107,107,108,106,107,108,108,107,106,106,107,106,107,106,107,107,108,108,107,108,106,106,108,107,107,107,108,108,106,108,107,108,106,107,108,108,108,106,108,106,108,107,108,108,106,106,107,107,106,106,106,106,108,108,106,108,108,108,106,108,106,108,108,108,108,106,107,108,
106,107,107,106,107,106,107,106,107,106,107,106,106,106,108,106,106,107,106,108,108,107,106,108,108,108,106,107,107,106,106,107,107,106,106,106,107,107,108,108,107,107,108,107,108,107,106,106,107,108,106,108,106,106,106,107,108,107,106,107,106,107,107,108,106,108,107,108,106,107,107,108,108,108,107,106,106,107,106,108,
106,107,108,106,106,107,106,106,108,108,106,107,108,107,106,108,106,108,106,108,108,107,108,106,108,108,106,108,107,107,106,107,107,108,108,107,107,106,106,106,107,108,107,107,107,108,106,106,108,108,106,108,108,108,108,108,106,108,106,108,106,108,106,107,108,107,106,108,108,108,106,108,106,107,108,107,107,108,107,107,
106,106,106,106,107,108,107,107,108,108,106,108,108,108,106,107,107,107,108,107,107,107,107,107,107,108,108,106,107,108,106,106,106,108,107,106,108,107,108,108,106,108,108,108,107,106,106,106,108,108,106,106,107,108,106,108,108,108,108,106,107,107,106,106,106,107,106,106,106,108,107,108,106,107,107,107,107,107,108,106,
106,106,107,106,107,107,108,107,108,108,107,107,107,106,108,106,106,106,106,107,107,106,106,108,108,107,108,107,108,108,106,108,108,106,108,106,108,106,106,108,106,107,107,106,107,107,106,106,108,106,106,106,108,106,107,108,107,106,107,108,107,106,108,106,107,106,107,108,107,107,108,106,106,108,107,106,106,107,107,108,
107,106,108,107,107,107,108,106,106,108,107,108,106,106,107,106,106,107,107,108,106,107,106,106,106,107,108,107,106,107,106,107,108,106,106,106,108,107,108,107,107,106,108,107,106,106,108,107,107,107,108,106,108,106,106,107,107,107,108,108,106,106,106,107,106,107,106,107,108,106,106,107,108,108,106,107,107,107,107,106,
107,108,108,106,106,106,107,107,108,107,106,106,106,106,106,108,108,108,108,107,106,106,108,107,106,106,107,107,108,106,107,108,106,108,43,44,44,44,44,44,45,106,107,108,107,106,108,107,106,107,107,107,106,107,107,108,106,106,107,107,108,107,107,107,107,107,106,106,107,106,108,107,107,108,108,106,106,106,108,106,
108,107,108,106,108,107,107,108,106,108,107,106,106,108,107,108,106,106,107,107,108,108,106,108,108,108,43,44,44,44,44,44,44,44,24,65,65,65,65,65,23,44,44,44,45,107,107,106,108,108,107,107,107,108,106,107,107,108,107,107,106,108,107,106,107,107,107,107,106,106,108,108,106,108,108,107,107,107,107,106,
106,106,107,108,107,106,106,107,107,106,106,107,107,106,107,107,106,108,106,43,44,44,44,44,44,44,24,65,65,65,65,65,65,65,65,65,65,65,65,65,65,65,65,65,23,44,44,44,45,108,108,106,108,106,106,108,107,107,108,108,106,106,107,108,108,106,106,108,106,106,106,106,106,106,107,106,108,108,108,106,
106,107,106,108,108,107,108,106,107,106,108,108,106,108,106,106,43,44,44,24,65,65,65,65,65,65,65,65,65,65,65,65,65,65,65,65,65,65,65,65,65,65,65,65,65,65,2,86,87,108,107,106,107,107,108,107,106,107,108,108,108,106,108,106,107,106,106,108,107,106,106,106,108,106,108,107,108,107,106,107,
108,106,108,108,108,108,108,108,106,106,106,106,106,43,44,44,24,65,65,65,65,65,65,65,65,65,65,65,65,65,65,65,65,65,65,65,65,65,65,65,65,65,65,65,65,2,87,108,106,107,107,106,107,108,106,108,107,107,107,108,106,107,106,107,107,107,107,107,107,106,107,106,106,108,106,106,107,108,106,106,
106,107,108,106,106,106,108,107,106,108,43,44,44,24,65,65,65,65,65,65,65,65,65,65,65,65,65,65,65,65,65,65,65,65,65,2,86,3,65,65,65,65,65,2,86,87,106,108,106,108,107,106,106,106,108,108,108,107,106,107,106,106,108,108,108,108,107,108,106,107,106,107,106,108,107,108,108,108,106,107,
107,108,106,107,107,43,44,44,44,44,24,65,65,65,65,65,65,65,65,65,65,65,65,65,65,65,65,65,65,65,2,86,86,3,65,23,44,24,65,2,86,86,86,87,106,107,106,106,107,108,106,108,106,106,106,107,108,108,107,107,106,107,108,106,106,106,108,107,106,108,107,106,107,106,107,106,107,106,108,106,
106,108,108,43,44,24,65,65,65,65,65,65,65,65,65,65,65,65,65,65,65,65,65,65,65,65,65,2,86,86,87,106,106,85,86,86,86,86,86,87,106,107,108,108,106,107,108,106,106,107,108,107,108,108,108,108,107,106,106,106,108,108,106,106,107,107,108,108,107,107,107,108,106,106,106,108,106,106,106,107,
44,44,44,24,65,65,65,65,65,65,65,65,65,65,65,65,65,65,65,65,65,65,65,65,2,86,86,87,108,106,106,108,106,107,107,108,107,106,108,107,106,106,106,108,107,108,106,106,106,108,107,107,107,106,107,106,106,107,108,106,107,106,106,108,106,106,107,107,108,107,106,106,106,108,108,107,108,106,107,106,
65,65,65,65,65,65,65,65,65,65,65,65,65,65,65,65,65,65,65,65,65,65,2,86,87,107,106,107,107,108,107,107,107,107,107,106,106,106,107,106,106,107,106,106,107,107,107,108,106,108,106,106,108,107,106,108,107,108,107,106,107,108,107,107,106,108,107,107,108,106,106,106,107,108,107,107,106,106,107,108,
65,65,65,65,65,65,65,65,65,65,65,65,65,65,65,65,65,65,65,65,65,65,66,106,108,108,108,108,108,106,106,108,108,108,108,106,108,107,107,107,108,106,108,106,106,107,108,106,108,108,106,108,108,106,108,108,108,106,108,107,107,108,107,108,106,106,106,108,107,108,108,106,108,108,106,108,106,106,108,108,
65,65,65,65,65,65,65,65,65,65,65,65,65,65,65,65,65,65,65,65,65,65,66,108,108,107,106,106,106,106,107,108,106,106,107,108,108,106,107,107,108,108,106,106,107,106,108,106,107,108,106,108,108,108,107,107,106,108,107,107,106,108,108,106,108,106,107,108,107,106,108,108,107,107,106,108,106,106,108,108,
65,65,65,65,65,65,65,65,65,65,65,65,65,65,65,65,65,65,65,65,65,65,66,106,106,107,106,107,106,106,106,106,106,106,107,108,107,107,107,106,106,106,107,108,108,108,107,107,107,108,107,106,107,108,106,106,108,107,108,107,107,106,107,106,107,108,108,107,107,106,108,106,107,108,106,107,107,106,106,106,
65,65,65,65,65,65,65,65,65,65,65,65,65,65,65,65,65,65,65,65,65,65,23,45,106,108,108,106,106,106,106,106,106,106,106,108,108,107,108,108,108,108,106,107,108,106,106,107,108,107,107,107,106,107,107,108,107,106,108,108,107,107,106,107,108,106,106,108,107,108,108,108,108,107,107,107,106,107,107,107,
65,65,65,65,65,65,65,65,65,65,65,65,65,65,65,65,65,65,65,65,65,65,65,66,108,108,107,106,107,106,107,106,108,107,108,106,106,107,108,107,107,108,106,106,108,106,108,107,107,106,107,107,106,107,107,107,106,108,106,106,106,108,108,108,107,106,107,108,108,107,106,108,106,108,107,108,106,108,107,107,
65,65,65,65,65,65,65,65,65,65,65,65,65,65,65,65,65,65,65,65,65,2,86,87,108,108,108,108,108,107,108,107,107,106,107,107,106,108,108,107,106,106,106,107,106,107,108,107,108,107,107,107,108,106,108,108,108,106,106,106,106,108,107,107,107,108,106,107,107,107,108,106,107,108,108,107,106,106,106,106,
65,65,65,65,65,65,65,65,65,65,65,65,65,65,65,65,65,65,65,65,65,66,106,106,106,106,107,108,106,108,106,107,108,108,107,108,107,106,108,108,108,106,108,107,108,108,107,108,107,106,107,108,106,108,106,108,106,107,108,107,108,108,107,108,107,108,107,106,107,108,107,106,107,107,106,107,106,107,107,108,
65,65,65,65,65,65,65,65,65,65,65,65,65,65,65,65,65,65,65,65,65,23,44,45,108,106,108,108,108,107,106,106,106,106,107,107,107,106,107,106,107,106,106,106,106,108,107,106,106,108,106,108,107,107,106,107,107,107,108,108,107,107,108,106,108,107,106,108,107,108,106,108,106,107,108,107,107,108,108,108,
65,65,65,65,65,65,65,65,65,65,65,65,65,65,65,65,65,65,65,65,65,2,86,87,107,108,107,108,106,108,108,108,106,108,106,108,106,106,107,108,108,108,107,107,107,108,107,107,106,108,108,106,106,106,106,107,106,108,107,107,106,107,106,108,106,106,106,106,107,106,106,107,107,106,106,108,106,107,107,107,
65,65,65,65,65,65,65,65,65,65,65,65,65,65,65,65,65,65,65,65,2,87,107,108,106,107,106,108,106,107,107,108,106,106,108,107,107,107,108,106,106,107,108,107,108,108,107,106,108,107,107,106,106,106,107,107,107,107,107,107,108,108,106,108,107,106,108,108,108,106,107,107,106,108,106,107,106,108,108,108,
65,65,65,65,65,65,65,65,65,65,65,65,65,65,65,65,65,65,65,65,23,44,44,44,45,107,107,108,108,108,107,107,106,106,108,107,108,106,106,108,107,106,108,106,108,106,106,107,107,108,107,108,106,108,106,107,108,107,106,107,108,107,106,108,108,106,106,108,106,106,107,106,108,108,107,106,106,108,107,106,
65,65,65,65,65,65,65,65,65,65,65,65,65,65,65,65,65,65,65,65,65,65,65,65,66,107,107,107,106,107,106,107,107,106,106,107,107,108,107,107,106,108,108,108,108,106,106,108,107,108,106,108,108,107,107,107,107,108,107,108,107,108,108,107,106,107,107,106,106,106,107,107,107,106,106,106,106,107,107,108,
65,65,65,65,65,65,65,65,65,65,65,65,65,65,65,65,65,65,65,65,65,65,65,65,66,106,108,108,106,106,108,108,107,106,108,106,108,108,107,106,108,106,106,107,108,106,106,106,108,106,107,106,106,108,108,107,107,106,106,108,106,106,106,108,107,107,106,106,107,107,107,108,108,106,108,107,106,108,106,107,
65,65,65,65,65,65,65,65,65,65,65,65,65,65,65,65,65,65,65,65,65,65,65,65,23,45,106,108,107,108,108,106,107,107,107,108,107,107,107,106,108,107,107,107,106,106,107,106,106,108,108,107,108,106,107,106,107,108,106,106,106,106,107,107,106,106,108,107,106,108,107,106,108,108,108,107,108,108,106,106,
65,65,65,65,65,65,65,65,65,65,65,65,65,65,65,65,65,65,65,65,65,65,65,65,2,87,107,106,106,106,106,108,108,108,108,106,106,108,107,106,106,106,106,108,107,106,108,107,107,108,107,106,107,107,107,108,108,106,108,107,107,107,108,108,108,107,107,107,108,107,107,106,107,106,107,108,106,106,106,108,
65,65,65,65,65,65,65,65,65,65,65,65,65,65,65,65,65,65,65,65,65,65,65,65,66,108,106,108,106,106,106,107,107,106,106,107,106,106,106,108,107,106,107,108,106,107,108,107,108,106,107,107,108,107,106,108,106,106,108,107,108,106,107,106,108,108,108,107,106,107,106,106,106,108,107,107,107,108,107,106,
65,65,65,65,65,65,65,65,65,65,65,65,65,65,65,65,65,65,65,65,65,65,65,65,66,108,107,107,107,107,107,107,106,108,106,108,106,106,107,108,106,107,108,106,107,106,106,108,106,107,108,107,107,106,108,106,106,108,108,107,107,108,107,108,107,106,108,106,108,106,108,108,106,107,108,108,106,107,107,108,
65,65,65,65,2,3,65,65,65,65,65,65,65,65,65,65,65,65,65,65,65,65,2,86,87,106,106,106,106,106,108,107,106,107,106,107,108,108,106,107,108,107,106,106,108,107,108,107,108,107,108,106,107,107,107,107,106,106,108,107,106,108,107,108,107,106,108,107,108,106,108,106,107,107,108,106,108,108,106,108,
65,65,65,65,66,85,86,86,3,65,65,2,3,65,65,65,65,65,65,65,65,2,87,106,107,107,107,106,107,106,106,107,107,107,106,106,106,108,108,107,107,107,106,107,106,107,108,107,108,107,106,106,108,108,108,106,108,106,106,108,107,107,108,107,106,107,107,108,107,107,107,107,107,108,107,107,108,107,107,106,
65,65,2,86,87,108,108,108,85,86,86,87,85,86,86,3,65,65,65,2,86,87,107,107,108,107,108,106,108,107,108,108,106,107,107,107,106,108,108,108,106,107,108,106,107,106,106,107,107,106,106,106,108,108,107,108,107,106,106,108,108,107,106,106,106,108,107,107,106,106,107,107,108,107,107,108,108,107,106,107,
65,2,87,107,107,106,106,107,107,108,107,106,107,106,106,64,65,65,2,87,106,106,106,106,107,106,108,106,107,107,106,106,106,106,108,108,106,107,108,106,106,106,108,108,106,107,107,108,108,106,107,106,106,106,106,108,106,107,106,107,108,107,107,107,108,108,106,108,107,106,108,108,107,107,108,108,108,107,108,106,
2,87,107,108,106,106,107,106,108,106,106,107,107,107,106,85,86,86,87,108,108,107,108,106,108,106,108,106,106,107,107,107,107,106,108,107,108,107,106,108,108,106,108,108,107,106,108,108,106,107,106,107,107,108,106,108,106,107,107,108,107,107,108,107,108,106,108,107,108,107,107,107,108,108,106,106,107,107,107,107,
66,106,108,107,108,107,106,107,108,108,107,108,107,108,107,108,108,108,107,106,107,108,107,106,106,106,108,106,107,107,108,108,107,108,106,108,108,106,106,108,108,108,106,107,107,108,108,108,107,108,107,106,108,108,107,107,107,106,107,107,107,106,108,107,107,106,106,108,108,106,107,108,108,106,108,108,106,108,108,106,
87,108,106,106,106,106,106,108,107,107,107,106,107,106,106,108,106,108,107,108,106,107,107,107,106,108,108,108,107,106,108,108,106,106,106,108,106,107,107,106,108,108,107,106,107,108,108,107,108,106,106,106,108,107,106,108,108,106,107,107,107,108,107,106,106,108,107,107,107,107,107,107,108,107,106,108,108,106,106,108,
107,106,107,107,107,107,108,106,108,108,108,107,106,106,107,106,106,107,107,108,108,106,106,107,106,107,106,106,107,107,107,106,108,108,108,108,106,107,107,108,106,106,107,107,108,107,108,106,106,106,107,107,106,108,106,107,108,107,107,108,107,107,107,106,107,108,106,106,106,107,108,106,106,107,108,106,107,107,106,108,
108,106,107,106,106,106,108,108,107,107,107,108,106,106,106,108,108,107,107,106,106,106,106,108,108,108,108,108,106,108,107,106,107,107,107,106,107,108,107,107,108,108,108,106,106,106,108,107,108,108,108,106,108,108,108,107,108,106,108,106,107,107,108,106,107,107,106,106,107,107,106,107,106,108,108,108,108,108,108,106,
107,108,107,107,108,106,106,106,107,106,107,107,106,106,106,106,108,108,107,108,108,106,106,107,106,107,106,106,106,106,106,107,108,108,106,108,107,108,106,106,108,107,107,108,107,108,106,107,106,108,108,107,107,107,107,108,108,108,106,107,106,107,108,108,106,106,106,108,108,106,108,106,106,108,106,108,106,107,106,106,
107,107,107,108,107,108,108,107,107,106,106,106,106,107,107,106,106,106,108,106,107,108,107,107,106,108,108,106,108,108,106,106,106,107,107,108,107,108,107,107,107,107,108,107,108,106,108,108,107,106,106,106,106,107,107,107,107,107,107,106,106,107,106,107,108,106,107,106,106,107,108,108,107,106,107,106,108,106,106,108,
107,107,106,107,108,108,108,108,107,106,107,107,107,107,108,106,108,108,108,108,108,107,108,107,106,107,106,106,107,106,108,106,107,108,107,108,107,108,108,107,108,106,106,106,108,106,108,107,108,108,108,107,106,106,108,106,106,106,108,107,108,106,107,107,107,106,108,107,106,107,107,108,108,106,107,107,107,108,106,107,
106,108,106,108,108,108,107,107,108,106,106,106,106,107,108,107,107,107,106,108,108,108,106,108,106,108,106,108,107,106,107,107,106,108,106,108,106,106,106,107,106,106,107,106,106,106,106,107,108,107,107,106,107,107,107,108,108,106,106,108,108,108,106,106,106,107,108,107,106,107,107,108,108,107,107,107,108,106,106,107,
107,108,107,106,107,108,108,106,106,108,106,108,107,106,108,106,108,106,106,106,108,107,107,106,108,107,107,106,106,107,107,107,108,107,108,106,107,108,107,107,107,107,108,108,106,106,107,108,107,106,107,107,106,107,108,107,106,106,107,106,107,108,107,108,106,107,107,107,108,108,106,107,107,108,107,108,107,107,108,107,
107,108,107,108,107,108,106,108,107,106,107,108,107,108,106,107,106,108,108,108,106,107,108,108,108,107,106,107,107,108,106,106,106,107,106,108,108,106,107,106,106,108,108,108,106,108,106,108,108,106,107,108,106,106,107,107,106,108,106,107,106,106,106,108,108,106,108,107,107,108,108,106,107,107,106,108,107,107,107,108,
107,107,106,107,107,107,108,108,107,107,108,108,107,106,108,106,108,106,106,108,108,107,107,106,107,108,107,106,108,108,108,108,106,106,107,106,107,107,107,108,106,108,106,107,107,108,108,107,106,106,106,108,107,106,108,108,107,108,106,106,107,107,107,106,108,107,107,107,106,108,108,107,108,106,106,107,106,107,107,108,
106,108,108,106,108,108,108,107,106,108,106,108,108,107,108,106,107,108,108,108,106,108,106,106,106,107,108,108,107,108,107,107,106,106,106,107,108,106,108,108,106,107,106,106,107,107,106,107,108,108,108,107,108,107,106,107,106,107,108,106,106,106,107,107,108,106,108,106,108,107,106,106,107,106,106,108,106,108,108,106,
106,106,108,107,107,106,106,107,108,107,106,106,107,107,106,106,106,108,108,107,106,106,106,108,107,106,107,106,107,108,106,106,107,106,107,106,107,108,107,106,108,106,108,106,106,108,107,106,108,108,108,106,108,106,108,107,108,108,107,107,108,107,106,108,108,107,108,106,108,106,106,106,107,107,106,107,106,106,108,108,
107,108,108,107,106,106,107,107,106,107,108,107,107,106,106,106,108,107,107,108,106,108,107,107,106,106,106,106,106,107,107,108,106,107,107,107,107,108,107,106,108,107,107,108,107,108,107,106,107,106,106,108,108,107,107,106,108,108,108,108,107,107,108,108,106,107,106,108,107,106,107,106,107,107,106,106,108,107,107,108,
108,107,106,107,108,106,107,107,106,108,107,108,106,108,108,108,108,106,107,107,106,106,107,107,107,108,108,107,108,107,108,106,106,107,108,107,108,106,107,108,106,107,108,106,108,107,106,107,106,108,107,106,107,108,108,107,107,106,107,106,107,106,106,106,106,106,108,107,108,108,106,106,107,108,106,107,106,108,106,106,
108,106,108,106,106,108,107,106,106,107,108,107,108,106,107,106,106,107,108,108,108,106,106,107,108,107,106,107,107,108,107,108,106,107,106,106,108,108,108,108,108,106,107,107,108,107,106,106,106,106,106,107,108,106,108,108,107,108,106,106,107,108,106,106,107,106,106,108,107,107,108,106,108,106,106,107,106,106,106,108,
108,108,108,106,106,106,107,108,107,107,107,108,107,108,107,106,108,106,106,106,107,106,107,106,106,106,106,108,107,108,107,106,107,108,107,108,107,107,108,106,106,106,108,106,108,106,108,107,106,108,106,108,108,107,107,106,107,108,107,106,108,106,108,108,108,107,106,107,106,108,108,108,107,107,108,107,107,106,108,108,
106,106,107,106,107,107,106,108,108,108,107,107,107,108,106,106,108,108,106,107,108,107,106,108,106,108,107,108,107,108,106,106,108,106,107,108,107,107,108,106,108,108,108,108,107,106,106,106,106,106,107,108,106,106,106,106,108,107,108,106,106,107,106,108,106,108,106,108,107,106,108,108,107,108,107,108,107,108,107,106,
106,106,108,108,108,106,106,107,107,108,107,108,108,107,107,108,106,106,106,108,108,107,106,107,107,106,107,108,107,107,106,107,107,106,108,106,108,107,106,106,107,107,106,107,108,107,108,107,108,107,106,106,108,106,106,106,108,106,108,108,107,106,106,107,107,106,106,108,107,108,106,106,107,108,106,106,108,107,107,106,
108,108,107,107,107,107,108,108,108,107,106,106,107,108,106,106,107,107,106,107,108,107,108,106,108,107,107,107,108,108,108,106,108,108,107,107,107,106,108,106,108,107,106,107,108,108,108,106,106,107,108,108,107,108,108,108,106,108,108,106,106,108,106,107,107,106,108,108,108,106,108,108,106,106,106,107,106,108,108,106,
108,107,106,108,107,107,107,108,106,107,107,108,108,106,108,108,106,107,108,108,107,107,108,108,108,106,107,106,106,108,106,107,108,107,106,107,108,108,108,108,106,107,108,108,107,107,106,108,108,107,108,106,106,107,107,108,106,108,108,107,108,107,108,107,108,108,108,106,107,108,107,107,108,107,108,108,106,106,106,108,
106,107,106,107,107,107,107,107,108,107,106,108,107,106,106,107,107,108,106,106,108,107,108,106,106,108,107,107,106,106,108,108,107,106,108,107,107,107,106,106,108,108,107,106,108,107,106,106,108,108,108,107,107,107,108,106,108,108,108,107,107,107,107,106,108,108,106,108,108,107,107,107,107,108,106,108,107,107,107,106,
108,107,106,106,108,106,108,108,107,108,107,106,108,108,108,108,108,107,108,107,107,108,107,108,108,108,106,108,108,108,107,108,108,108,106,108,107,106,107,108,107,107,106,106,106,108,106,106,106,107,106,106,106,108,108,107,108,106,107,106,108,108,108,106,106,106,106,107,107,108,108,107,108,107,108,107,107,108,108,106,
106,108,107,106,107,108,107,107,108,106,108,108,106,106,108,108,108,106,108,108,106,106,106,108,107,106,108,107,108,106,107,107,107,107,107,106,107,108,108,108,107,108,106,107,107,106,108,107,107,106,107,106,108,108,107,107,108,106,107,108,108,106,108,108,106,108,106,108,108,108,106,108,108,108,106,107,108,108,108,107,
106,108,108,107,106,107,106,106,108,106,108,107,108,106,108,106,108,106,107,108,106,107,107,108,107,106,106,107,106,106,106,107,106,107,107,106,108,106,107,108,107,108,108,107,106,106,108,106,108,107,106,106,108,108,107,107,107,106,106,107,106,107,107,107,107,108,107,107,107,106,107,107,108,106,107,106,106,106,107,107,
107,108,107,106,107,107,107,107,107,108,106,108,107,107,106,108,106,107,108,107,108,107,106,106,106,108,106,108,108,106,108,106,108,108,108,108,108,107,106,106,107,107,107,107,107,107,106,108,106,108,108,106,108,108,106,108,108,106,108,108,107,107,106,106,108,107,106,108,107,107,108,107,108,108,106,107,106,107,107,107,
106,108,108,107,106,106,106,106,107,106,107,106,106,106,108,108,106,106,106,108,108,106,107,106,107,108,106,106,107,108,106,107,108,106,108,108,107,106,108,108,108,107,107,106,108,108,106,107,106,106,108,106,106,108,108,108,107,106,108,106,107,107,108,108,106,106,108,106,107,107,107,107,107,106,107,108,106,107,108,106,
106,106,108,107,107,108,107,108,108,108,107,108,106,106,106,107,108,106,108,108,106,108,108,108,108,108,108,106,106,106,106,107,106,106,108,108,106,107,108,108,106,107,108,107,106,107,107,107,107,108,108,107,107,108,106,107,108,107,108,108,107,106,106,107,108,107,106,108,108,106,107,107,108,108,106,107,107,108,106,108,
107,107,107,108,106,108,107,108,108,108,108,108,107,107,107,107,106,106,106,107,106,107,107,107,107,106,107,106,108,107,106,108,107,108,107,106,107,108,108,108,106,106,108,107,108,108,108,108,106,107,108,106,108,108,106,107,108,107,106,106,107,106,108,106,107,106,107,106,108,106,108,107,106,108,107,107,107,108,106,107,
106,107,106,107,107,108,108,107,108,107,108,106,107,107,108,108,108,108,106,107,107,106,106,106,107,108,108,108,106,107,107,108,107,106,107,108,108,106,108,108,106,106,106,107,108,107,107,107,107,107,108,108,106,106,106,107,107,107,108,108,106,108,107,107,107,107,108,107,108,107,108,106,107,107,107,108,108,106,108,107,
107,107,106,106,108,106,107,107,108,107,107,107,108,107,107,107,108,107,106,108,108,106,106,108,107,107,108,107,107,108,107,108,106,107,106,108,108,106,106,106,107,108,106,107,108,107,108,108,108,106,106,107,107,108,107,108,106,106,107,107,106,108,108,106,106,107,106,106,108,107,107,108,106,107,108,108,106,107,108,106,
106,106,108,106,108,107,107,106,107,108,106,107,107,106,106,106,107,108,108,106,108,106,107,106,107,106,108,106,108,108,106,106,106,107,108,106,106,106,107,107,108,106,106,108,106,106,107,107,107,106,108,106,108,107,106,107,107,106,107,108,107,108,107,107,107,107,108,108,106,107,106,106,106,106,107,106,106,107,106,107,
106,108,107,106,107,107,106,108,106,107,106,108,107,107,108,106,107,106,106,106,107,106,106,106,106,107,107,108,107,107,108,108,108,108,107,107,107,107,107,107,108,108,106,107,107,106,107,108,107,106,107,106,106,108,106,107,108,106,108,106,107,108,106,107,106,106,108,106,107,107,108,108,108,106,107,106,107,106,106,106,
106,107,108,106,108,108,107,108,108,107,107,107,106,106,108,107,106,107,106,107,108,107,107,107,107,106,107,106,107,106,107,107,107,108,107,107,106,107,107,106,108,107,106,107,108,108,108,107,107,107,106,106,108,106,107,106,108,106,107,108,108,107,106,108,107,106,106,108,108,108,107,108,107,107,108,106,107,108,107,106
</data>
 </layer>
 <layer id="4" name="Sand" width="80" height="80">
  <data encoding="csv">
0,0,0,0,0,0,0,0,0,0,0,0,0,0,0,0,0,0,0,0,0,0,0,0,0,0,0,0,0,0,0,0,0,0,0,0,0,0,0,0,0,0,0,0,0,0,0,0,0,0,0,0,0,0,0,0,0,0,0,0,0,0,0,0,0,0,0,0,0,0,0,0,0,0,0,0,0,0,0,0,
0,0,0,0,0,0,0,0,0,0,0,0,0,0,0,0,0,0,0,0,0,0,0,0,0,0,0,0,0,0,0,0,0,0,0,0,0,0,0,0,0,0,0,0,0,0,0,0,0,0,0,0,0,0,0,0,0,0,0,0,0,0,0,0,0,0,0,0,0,0,0,0,0,0,0,0,0,0,0,0,
0,0,0,0,0,0,0,0,0,0,0,0,0,0,0,0,0,0,0,0,0,0,0,0,0,0,0,0,0,0,0,0,0,0,0,0,0,0,0,0,0,0,0,0,0,0,0,0,0,0,0,0,0,0,0,0,0,0,0,0,0,0,0,0,0,0,0,0,0,0,0,0,0,0,0,0,0,0,0,0,
0,0,0,0,0,0,0,0,0,0,0,0,0,0,0,0,0,0,0,0,0,0,0,0,0,0,0,0,0,0,0,0,0,0,0,0,0,0,0,0,0,0,0,0,0,0,0,0,0,0,0,0,0,0,0,0,0,0,0,0,0,0,0,0,0,0,0,0,0,0,0,0,0,0,0,0,0,0,0,0,
0,0,0,0,0,0,0,0,0,0,0,0,0,0,0,0,0,0,0,0,0,0,0,0,0,0,0,0,0,0,0,0,0,0,0,0,0,0,0,0,0,0,0,0,0,0,0,0,0,0,0,0,0,0,0,0,0,0,0,0,0,0,0,0,0,0,0,0,0,0,0,0,0,0,0,0,0,0,0,0,
0,0,0,0,0,0,0,0,0,0,0,0,0,0,0,0,0,0,0,0,0,0,0,0,0,0,0,0,0,0,0,0,0,0,0,0,0,0,0,0,0,0,0,0,0,0,0,0,0,0,0,0,0,0,0,0,0,0,0,0,0,0,0,0,0,0,0,0,0,0,0,0,0,0,0,0,0,0,0,0,
0,0,0,0,0,0,0,0,0,0,0,0,0,0,0,0,0,0,0,0,0,0,0,0,0,0,0,0,0,0,0,0,0,0,0,0,0,0,0,0,0,0,0,0,0,0,0,0,0,0,0,0,0,0,0,0,0,0,0,0,0,0,0,0,0,0,0,0,0,0,0,0,0,0,0,0,0,0,0,0,
0,0,0,0,0,0,0,0,0,0,0,0,0,0,0,0,0,0,0,0,0,0,0,0,0,0,0,0,0,0,0,0,0,0,0,0,0,0,0,0,0,0,0,0,0,0,0,0,0,0,0,0,0,0,0,0,0,0,0,0,0,0,0,0,0,0,0,0,0,0,0,0,0,0,0,0,0,0,0,0,
0,0,0,0,0,0,0,0,0,0,0,0,0,0,0,0,0,0,0,0,0,0,0,0,0,0,0,0,0,0,0,0,0,0,0,0,0,0,0,0,0,0,0,0,0,0,0,0,0,0,0,0,0,0,0,0,0,0,0,0,0,0,0,0,0,0,0,0,0,0,0,0,0,0,0,0,0,0,0,0,
0,0,0,0,0,0,0,0,0,0,0,0,0,0,0,0,0,0,0,0,0,0,0,0,0,0,0,0,0,0,0,0,0,0,0,0,0,0,0,0,0,0,0,0,0,0,0,0,0,0,0,0,0,0,0,0,0,0,0,0,0,0,0,0,0,0,0,0,0,0,0,0,0,0,0,0,0,0,0,0,
0,0,0,0,0,0,0,0,0,0,0,0,0,0,0,0,0,0,0,0,0,0,0,0,0,0,0,0,0,0,0,0,0,0,0,0,0,0,0,0,0,0,0,0,0,0,0,0,0,0,0,0,0,0,0,0,0,0,0,0,0,0,0,0,0,0,0,0,0,0,0,0,0,0,0,0,0,0,0,0,
0,0,0,0,0,0,0,0,0,0,0,0,0,0,0,0,0,0,0,0,0,0,0,0,0,0,0,0,0,0,0,0,0,0,0,0,0,0,0,0,0,0,0,0,0,0,0,0,0,0,0,0,0,0,0,0,0,0,0,0,0,0,0,0,0,0,0,0,0,0,0,0,0,0,0,0,0,0,0,0,
0,0,0,0,0,0,0,0,0,0,0,0,0,0,0,0,0,0,0,0,0,0,0,0,0,0,0,0,0,0,0,0,0,0,0,0,0,0,0,0,0,0,0,0,0,0,0,0,0,0,0,0,0,0,0,0,0,0,0,0,0,0,0,0,0,0,0,0,0,0,0,0,0,0,0,0,0,0,0,0,
0,0,0,0,0,0,0,0,0,0,0,0,0,0,0,0,0,0,0,0,0,0,0,0,0,0,0,0,0,0,0,0,0,0,0,0,0,0,0,0,0,0,0,0,0,0,0,0,0,0,0,0,0,0,0,0,0,0,0,0,0,0,0,0,0,0,0,0,0,0,0,0,0,0,0,0,0,0,0,0,
0,0,0,0,0,0,0,0,0,0,0,0,0,0,0,0,0,0,0,0,0,0,0,0,0,0,0,0,0,0,0,0,0,0,0,0,0,0,0,0,0,0,0,0,0,0,0,0,0,0,0,0,0,0,0,0,0,0,0,0,0,0,0,0,0,0,0,0,0,0,0,0,0,0,0,0,0,0,0,0,
0,0,0,0,0,0,0,0,0,0,0,0,0,0,0,0,0,0,0,0,0,0,0,0,0,0,0,0,0,0,0,0,0,0,0,0,0,0,0,0,0,0,0,0,0,0,0,0,0,0,0,0,0,0,0,0,0,0,0,0,0,0,0,0,0,0,0,0,0,0,0,0,0,0,0,0,0,0,0,0,
0,0,0,0,0,0,0,0,0,0,0,0,0,0,0,0,0,0,0,0,0,0,0,0,0,0,0,0,0,0,0,0,0,0,0,0,0,0,0,0,0,0,0,0,0,0,0,0,0,0,0,0,0,0,0,0,0,0,0,0,0,0,0,0,0,0,0,0,0,0,0,0,0,0,0,0,0,0,0,0,
0,0,0,0,0,0,0,0,0,0,0,0,0,0,0,0,0,0,0,0,0,0,0,0,0,0,0,0,0,0,0,0,0,0,0,0,0,0,0,0,0,0,0,0,0,0,0,0,0,0,0,0,0,0,0,0,0,0,0,0,0,0,0,0,0,0,0,0,0,0,0,0,0,0,0,0,0,0,0,0,
0,0,0,0,0,0,0,0,0,0,0,0,0,0,0,0,0,0,0,0,0,0,0,0,0,0,0,0,0,0,0,0,0,0,0,0,0,0,0,0,0,0,0,0,0,0,0,0,0,0,0,0,0,0,0,0,0,0,0,0,0,0,0,0,0,0,0,0,0,0,0,0,0,0,0,0,0,0,0,0,
0,0,0,0,0,0,0,0,0,0,0,0,0,0,0,0,0,0,0,0,0,0,0,0,0,0,0,0,0,0,0,0,0,0,0,0,0,0,0,0,0,0,0,0,0,0,0,0,0,0,0,0,0,0,0,0,0,0,0,0,0,0,0,0,0,0,0,0,0,0,0,0,0,0,0,0,0,0,0,0,
0,0,0,0,0,0,0,0,0,0,0,0,0,0,0,0,0,0,0,0,0,0,0,0,0,0,0,0,0,0,0,0,0,0,0,0,0,0,0,0,0,0,0,0,0,0,0,0,0,0,0,0,0,0,0,0,0,0,0,0,0,0,0,0,0,0,0,0,0,0,0,0,0,0,0,0,0,0,0,0,
0,0,0,0,0,0,0,0,0,0,0,0,0,0,0,0,0,0,0,0,0,0,0,0,0,0,0,0,0,0,0,0,0,0,0,0,0,0,0,0,0,0,0,0,0,0,0,0,0,0,0,0,0,0,0,0,0,0,0,0,0,0,0,0,0,0,0,0,0,0,0,0,0,0,0,0,0,0,0,0,
0,0,0,0,0,0,0,0,0,0,0,0,0,0,0,0,0,0,0,0,0,0,0,0,0,0,0,0,0,0,0,0,0,0,0,0,0,0,0,0,0,0,0,0,0,0,0,0,0,0,0,0,0,0,0,0,0,0,0,0,0,0,0,0,0,0,0,0,0,0,0,0,0,0,0,0,0,0,0,0,
0,0,0,0,0,0,0,0,0,0,0,0,0,0,0,0,0,0,0,0,0,0,0,0,0,0,0,0,0,0,0,0,0,0,0,0,0,0,0,0,0,0,0,0,0,0,0,0,0,0,0,0,0,0,0,0,0,0,0,0,0,0,0,0,0,0,0,0,0,0,0,0,0,0,0,0,0,0,0,0,
0,0,0,0,0,0,0,0,0,0,0,0,0,0,0,0,0,0,0,0,0,0,0,0,0,0,0,0,0,0,0,0,0,0,0,0,0,0,0,0,0,0,0,0,0,0,0,0,0,0,0,0,0,0,0,0,0,0,0,0,0,0,0,0,0,0,0,0,0,0,0,0,0,0,0,0,0,0,0,0,
0,0,0,0,0,0,0,0,0,0,0,0,0,0,0,0,0,0,0,0,0,0,0,0,0,0,0,0,0,0,0,0,0,0,0,0,0,0,0,0,0,0,0,0,0,0,0,0,0,0,0,0,0,0,0,0,0,0,0,0,0,0,0,0,0,0,0,0,0,0,0,0,0,0,0,0,0,0,0,0,
0,0,0,0,0,0,0,0,0,0,0,0,0,0,0,0,0,0,0,0,0,0,0,0,0,0,0,0,0,0,0,0,0,0,0,0,0,0,0,0,0,0,0,0,0,0,0,0,0,0,0,0,0,0,0,0,0,0,0,0,0,0,0,0,0,0,0,0,0,0,0,0,0,0,0,0,0,0,0,0,
0,0,0,0,0,0,0,0,0,0,0,0,0,0,0,0,0,0,0,0,0,0,0,0,0,0,0,0,0,0,0,0,0,0,0,0,0,0,0,0,0,0,0,0,0,0,0,0,0,0,0,0,0,0,0,0,0,0,0,0,0,0,0,0,0,0,0,0,0,0,0,0,0,0,0,0,0,0,0,0,
0,0,0,0,0,0,0,0,0,0,0,0,0,0,0,0,0,0,0,0,0,0,0,0,0,0,0,0,0,0,0,0,0,0,0,0,0,0,0,0,0,0,0,0,0,0,0,0,0,0,0,0,0,0,0,0,0,0,0,0,0,0,0,0,0,0,0,0,0,0,0,0,0,0,0,0,0,0,0,0,
0,0,0,0,0,0,0,0,0,0,0,0,0,0,0,0,0,0,0,0,0,0,0,0,0,0,0,0,0,0,0,0,0,0,0,0,0,0,0,0,0,0,0,0,0,0,0,0,0,0,0,0,0,0,0,0,0,0,0,0,0,0,0,0,0,0,0,0,0,0,0,0,0,0,0,0,0,0,0,0,
0,0,0,0,0,0,0,0,0,0,0,0,0,0,0,0,0,0,0,0,0,0,0,0,0,0,0,0,0,0,0,0,0,0,0,0,0,0,0,0,0,0,0,0,0,0,0,0,0,0,0,0,0,0,0,0,0,0,0,0,0,0,0,0,0,0,0,0,0,0,0,0,0,0,0,0,0,0,0,0,
0,0,0,0,0,0,0,0,0,0,0,0,0,0,0,0,0,0,0,0,0,0,0,0,0,0,0,0,0,0,0,0,0,0,0,0,0,0,0,0,0,0,0,0,0,0,0,0,0,0,0,0,0,0,0,0,0,0,0,0,0,0,0,0,0,0,0,0,0,0,0,0,0,0,0,0,0,0,0,0,
0,0,0,0,0,0,0,0,0,0,0,0,0,0,0,0,0,0,0,0,0,0,0,0,0,0,0,0,0,0,0,0,0,0,0,0,0,0,0,0,0,0,0,0,0,0,0,0,0,0,0,0,0,0,0,0,0,0,0,0,0,0,0,0,0,0,0,0,0,0,0,0,0,0,0,0,0,0,0,0,
0,0,0,0,0,0,0,0,0,0,0,0,0,0,0,0,0,0,0,0,0,0,0,0,0,0,0,0,0,0,0,0,0,0,0,0,0,0,0,0,0,0,0,0,0,0,0,0,0,0,0,0,0,0,0,0,0,0,0,0,0,0,0,0,0,0,0,0,0,0,0,0,0,0,0,0,0,0,0,0,
0,0,0,0,0,0,0,0,0,0,0,0,0,0,0,0,0,0,0,0,0,0,0,0,0,0,0,0,0,0,0,0,0,0,0,0,0,0,0,0,0,0,0,0,0,0,0,0,0,0,0,0,0,0,0,0,0,0,0,0,0,0,0,0,0,0,0,0,0,0,0,0,0,0,0,0,0,0,0,0,
0,0,0,0,0,0,0,0,0,0,0,0,0,0,0,0,0,0,0,0,0,0,0,0,0,0,0,0,0,0,0,0,0,0,0,0,0,0,0,0,0,0,0,0,0,0,0,0,0,0,0,0,0,0,0,0,0,0,0,0,0,0,0,0,0,0,0,0,0,0,0,0,0,0,0,0,0,0,0,0,
0,0,0,0,0,0,0,0,0,0,0,0,0,0,0,0,0,0,0,0,0,0,0,0,0,0,0,0,0,0,0,0,0,0,0,0,0,0,0,0,0,0,0,0,0,0,0,0,0,0,0,0,0,0,0,0,0,0,0,0,0,0,0,0,0,0,0,0,0,0,0,0,0,0,0,0,0,0,0,0,
0,0,0,0,0,0,0,0,0,0,0,0,0,0,0,0,0,0,0,0,0,0,0,0,0,0,0,0,0,0,0,0,0,0,0,0,0,0,0,0,0,0,0,0,0,0,0,0,0,0,0,0,0,0,0,0,0,0,0,0,0,0,0,0,0,0,0,0,0,0,0,0,0,0,0,0,0,0,0,0,
0,0,0,0,0,0,0,0,0,0,0,0,0,0,0,0,0,0,0,0,0,0,0,0,0,0,0,0,0,0,0,0,0,0,0,0,0,0,0,0,0,0,0,0,0,0,0,0,0,0,0,0,0,0,0,0,0,0,0,0,0,0,0,0,0,0,0,0,0,0,0,0,0,0,0,0,0,0,0,0,
0,0,0,0,0,0,0,0,0,0,0,0,0,0,0,0,0,0,0,0,0,0,0,0,0,0,0,0,0,0,0,0,0,0,0,0,0,0,0,0,0,0,0,0,0,0,0,0,0,0,0,0,0,0,0,0,0,0,0,0,0,0,0,0,0,0,0,0,0,0,0,0,0,0,0,0,0,0,0,0,
0,0,0,0,0,0,0,0,0,0,0,0,0,0,0,0,0,0,0,0,0,0,0,0,0,0,0,0,0,0,0,0,0,0,0,0,0,0,0,0,0,0,0,0,0,0,0,0,0,0,0,0,0,0,0,0,0,0,0,0,0,0,0,0,0,0,0,0,0,0,0,0,0,0,0,0,0,0,0,0,
0,0,0,0,0,0,0,0,0,0,0,0,0,0,0,0,0,0,0,0,0,0,0,0,0,0,0,0,0,0,0,0,0,0,0,0,0,0,0,0,0,0,0,0,0,0,0,0,0,0,0,0,0,0,0,0,0,0,0,0,0,0,0,0,0,0,0,0,0,0,0,0,0,0,0,0,0,0,0,0,
0,0,0,0,0,0,0,0,0,0,0,0,0,0,0,0,0,0,0,0,0,0,0,0,0,0,0,0,0,0,0,0,0,0,0,0,0,0,0,0,0,0,0,0,0,0,0,0,0,0,0,0,0,0,0,0,0,0,0,0,0,0,0,0,0,0,0,0,0,0,0,0,0,0,0,0,0,0,0,0,
0,0,0,0,0,0,0,0,0,0,0,0,0,0,0,0,0,0,0,0,0,0,0,0,0,0,0,0,0,0,0,0,0,0,0,0,0,0,0,0,0,0,0,0,0,0,0,0,0,0,0,0,0,0,0,0,0,0,0,0,0,0,0,0,0,0,0,0,0,0,0,0,0,0,0,0,0,0,0,0,
0,0,0,0,0,0,0,0,0,0,0,0,0,0,0,0,0,0,0,0,0,0,0,0,0,0,0,0,0,0,0,0,0,0,0,0,0,0,0,0,0,0,0,0,0,0,0,0,0,0,0,0,0,0,0,0,0,0,0,0,0,0,0,0,0,0,0,0,0,0,0,0,0,0,0,0,0,0,0,0,
0,0,0,0,0,0,0,0,0,0,0,0,0,0,0,0,0,0,0,0,0,0,0,0,0,0,0,0,0,0,0,0,0,0,0,0,0,0,0,0,0,0,0,0,0,0,0,0,0,0,0,0,0,0,0,0,0,0,0,0,0,0,0,0,0,0,0,0,0,0,0,0,0,0,0,0,0,0,0,0,
0,0,0,0,0,0,0,0,0,0,0,0,0,0,0,0,0,0,0,0,0,0,0,0,0,0,0,0,0,0,0,0,0,0,0,0,0,0,0,0,0,0,0,0,0,0,0,0,0,0,0,0,0,0,0,0,0,0,0,0,0,0,0,0,0,0,0,0,0,0,0,0,0,0,0,0,0,0,0,0,
0,0,0,0,0,0,0,0,0,0,0,0,0,0,0,0,0,0,0,0,0,0,0,0,0,0,0,0,0,0,0,0,0,0,0,0,0,0,0,0,0,0,0,0,0,0,0,0,0,0,0,0,0,0,0,0,0,0,0,0,0,0,0,0,0,0,0,0,0,0,0,0,0,0,0,0,0,0,0,0,
0,0,0,0,0,0,0,0,0,0,0,0,0,0,0,0,0,0,0,0,0,0,0,0,0,0,0,0,0,0,0,0,0,0,0,0,0,0,0,0,0,0,0,0,0,0,0,0,0,0,0,0,0,0,0,0,0,0,0,0,0,0,0,0,0,0,0,0,0,0,0,0,0,0,0,0,0,0,0,0,
0,0,0,0,0,0,0,0,0,0,0,0,0,0,0,0,0,0,0,0,0,0,0,0,0,0,0,0,0,0,0,0,0,0,0,0,0,0,0,0,0,0,0,0,0,0,0,0,0,0,0,0,0,0,0,0,0,0,0,0,0,0,0,0,0,0,0,0,0,0,0,0,0,0,0,0,0,0,0,0,
0,0,0,0,0,0,0,0,0,0,0,0,0,0,0,0,0,0,0,0,0,0,0,0,0,0,0,0,0,0,0,0,0,0,0,0,0,0,0,0,0,0,0,0,0,0,0,0,0,0,0,0,0,0,0,0,0,0,0,0,0,0,0,0,0,0,0,0,0,0,0,0,0,0,0,0,0,0,0,0,
0,0,0,0,0,0,0,0,0,0,0,0,0,0,0,0,0,0,0,0,0,0,0,0,0,0,0,0,0,0,0,0,0,0,0,0,0,0,0,0,0,0,0,0,0,0,0,0,0,0,0,0,0,0,0,0,0,0,0,0,0,0,0,0,0,0,0,0,0,0,0,0,0,0,0,0,0,0,0,0,
0,0,0,0,0,0,0,0,0,0,0,0,0,0,0,0,0,0,0,0,0,0,0,0,0,0,0,0,0,0,0,0,0,0,0,0,0,0,0,0,0,0,0,0,0,0,0,0,0,0,0,0,0,0,0,0,0,0,0,0,0,0,0,0,0,0,0,0,0,0,0,0,0,0,0,0,0,0,0,0,
0,0,0,0,0,0,0,0,0,0,0,0,0,0,0,0,0,0,0,0,0,0,0,0,0,0,0,0,0,0,0,0,0,0,0,0,0,0,0,0,0,0,0,0,0,0,0,0,0,0,0,0,0,0,0,0,0,0,0,0,0,0,0,0,0,0,0,0,0,0,0,0,0,0,0,0,0,0,0,0,
0,0,0,0,0,0,0,0,0,0,0,0,0,0,0,0,0,0,0,0,0,0,0,0,0,0,0,0,0,0,0,0,0,0,0,0,0,0,0,0,0,0,0,0,0,0,0,0,0,0,0,0,0,0,0,0,0,0,0,0,0,0,0,0,0,0,0,0,0,0,0,0,0,0,0,0,0,0,0,0,
0,0,0,0,0,0,0,0,0,0,0,0,0,0,0,0,0,0,0,0,0,0,0,0,0,0,0,0,0,0,0,0,0,0,0,0,0,0,0,0,0,0,0,0,0,0,0,0,0,0,0,0,0,0,0,0,0,0,0,0,0,0,0,0,0,0,0,0,0,0,0,0,0,0,0,0,0,0,0,0,
0,0,0,0,0,0,0,0,0,0,0,0,0,0,0,0,0,0,0,0,0,0,0,0,0,0,0,0,0,0,0,0,0,0,0,0,0,0,0,0,0,0,0,0,0,0,0,0,0,0,0,0,0,0,0,0,0,0,0,0,0,0,0,0,0,0,0,0,0,0,0,0,0,0,0,0,0,0,0,0,
0,0,0,0,0,0,0,0,0,0,0,0,0,0,0,0,0,0,0,0,0,0,0,0,0,0,0,0,0,0,0,0,0,0,0,0,0,0,0,0,0,0,0,0,0,0,0,0,0,0,0,0,0,0,0,0,0,0,0,0,0,0,0,0,0,0,0,0,0,0,0,0,0,0,0,0,0,0,0,0,
0,0,0,0,0,0,0,0,0,0,0,0,0,0,0,0,0,0,0,0,0,0,0,0,0,0,0,0,0,0,0,0,0,0,0,0,0,0,0,0,0,0,0,0,0,0,0,0,0,0,0,0,0,0,0,0,0,0,0,0,0,0,0,0,0,0,0,0,0,0,0,0,0,0,0,0,0,0,0,0,
0,0,0,0,0,0,0,0,0,0,0,0,0,0,0,0,0,0,0,0,0,0,0,0,0,0,0,0,0,0,0,0,0,0,0,0,0,0,0,0,0,0,0,0,0,0,0,0,0,0,0,0,0,0,0,0,0,0,0,0,0,0,0,0,0,0,0,0,0,0,0,0,0,0,0,0,0,0,0,0,
0,0,0,0,0,0,0,0,0,0,0,0,0,0,0,0,0,0,0,0,0,0,0,0,0,0,0,0,0,0,0,0,0,0,0,0,0,0,0,0,0,0,0,0,0,0,0,0,0,0,0,0,0,0,0,0,0,0,0,0,0,0,0,0,0,0,0,0,0,0,0,0,0,0,0,0,0,0,0,0,
0,0,0,0,0,0,0,0,0,0,0,0,0,0,0,0,0,0,0,0,0,0,0,0,0,0,0,0,0,0,0,0,0,0,0,0,0,0,0,0,0,0,0,0,0,0,0,0,0,0,0,0,0,0,0,0,0,0,0,0,0,0,0,0,0,0,0,0,0,0,0,0,0,0,0,0,0,0,0,0,
0,0,0,0,0,0,0,0,0,0,0,0,0,0,0,0,0,0,0,0,0,0,0,0,0,0,0,0,0,0,0,0,0,0,0,0,0,0,0,0,0,0,0,0,0,0,0,0,0,0,0,0,0,0,0,0,0,0,0,0,0,0,0,0,0,0,0,0,0,0,0,0,0,0,0,0,0,0,0,0,
0,0,0,0,0,0,0,0,0,0,0,0,0,0,0,0,0,0,0,0,0,0,0,0,0,0,0,0,0,0,0,0,0,0,0,0,0,0,0,0,0,0,0,0,0,0,0,0,0,0,0,0,0,0,0,0,0,0,0,0,0,0,0,0,0,0,0,295,296,297,0,0,0,0,0,0,0,0,0,0,
0,0,0,0,0,0,0,0,0,0,0,0,0,0,0,0,0,0,0,0,0,0,0,0,0,0,0,0,0,0,0,0,0,0,295,296,296,297,0,0,0,0,0,0,0,0,0,0,0,0,0,0,0,0,0,0,0,0,0,0,0,0,0,0,0,295,296,276,317,318,0,0,0,0,0,0,0,0,0,0,
0,0,0,0,0,0,0,0,0,0,0,0,0,0,0,0,0,0,0,0,0,0,0,0,0,0,0,0,0,0,0,0,0,0,316,317,317,318,0,0,0,0,0,0,0,0,0,0,0,0,0,0,0,0,0,0,0,0,0,0,0,0,0,0,295,276,320,317,320,318,0,0,0,0,0,0,0,0,0,0,
0,0,0,0,0,0,0,0,0,0,0,0,0,0,0,0,0,0,0,0,0,0,0,0,0,0,0,0,0,0,0,0,0,0,316,317,320,318,0,0,0,0,0,0,0,0,0,0,0,0,0,0,0,0,0,0,0,0,0,0,0,295,296,296,276,320,320,317,320,275,297,0,0,0,0,0,0,0,0,0,
0,0,0,0,0,0,0,0,0,0,0,0,0,0,0,0,0,0,0,0,0,0,0,0,0,0,0,0,0,0,0,0,0,0,316,320,320,275,296,296,297,0,0,0,0,0,0,0,0,0,0,0,0,0,0,0,0,0,0,0,295,276,317,317,317,317,320,317,320,317,318,0,0,0,0,0,0,0,0,0,
0,0,0,0,0,0,0,0,0,0,0,0,0,0,0,0,0,0,0,0,0,0,0,0,0,0,0,0,0,0,0,0,0,0,316,320,317,317,320,317,318,0,0,0,0,0,0,0,0,0,0,0,0,0,0,295,296,297,0,295,276,320,320,320,320,317,320,320,317,317,318,0,0,0,0,0,0,0,0,0,
0,0,0,0,0,0,0,0,0,0,0,0,0,0,0,0,0,0,0,0,0,0,0,0,0,0,0,0,0,0,0,0,0,0,316,320,317,317,317,317,275,297,0,0,0,0,0,0,0,0,295,296,296,296,296,276,317,275,296,276,317,317,317,317,317,317,320,317,320,317,318,0,0,0,0,0,0,0,0,0,
0,0,0,0,0,0,0,0,0,0,0,0,0,0,0,0,0,0,0,0,0,0,0,0,0,0,0,0,0,0,0,0,0,0,316,317,317,317,317,317,320,275,297,295,296,296,296,297,0,295,276,320,320,320,317,320,320,317,317,317,320,317,320,317,317,317,320,317,320,320,318,0,0,0,0,0,0,0,0,0,
0,0,0,0,0,0,0,0,0,0,0,0,0,0,0,0,0,0,0,0,0,0,0,0,0,0,0,0,0,0,0,0,0,0,316,320,317,317,317,317,317,317,275,276,317,317,320,275,296,276,317,320,320,320,317,320,320,317,320,317,320,320,320,317,317,320,317,320,317,317,275,297,0,0,0,0,0,0,0,0,
0,0,0,0,0,0,0,0,0,0,0,0,0,0,0,0,0,0,0,0,0,0,0,0,0,0,0,0,0,0,0,0,0,0,316,320,317,320,320,320,317,320,317,317,320,320,320,320,317,317,317,317,317,320,317,320,320,317,320,320,317,317,320,317,317,320,320,317,320,257,258,275,297,0,0,0,0,0,0,0,
0,0,0,0,0,0,0,0,0,0,0,0,0,0,0,0,0,0,0,0,0,0,0,0,0,0,0,0,0,0,0,0,0,0,316,317,317,320,320,320,320,320,320,317,317,317,320,317,320,317,320,320,320,257,341,341,341,341,341,341,341,341,341,341,341,341,341,341,341,342,340,258,318,0,0,0,0,0,0,0,
0,0,0,0,0,0,0,0,0,0,0,0,0,0,0,0,0,0,0,0,0,0,0,0,0,0,0,0,0,0,0,0,0,0,316,257,341,341,341,341,341,341,341,341,341,341,341,341,341,341,341,341,341,342,366,366,366,366,366,366,366,366,366,366,366,366,366,366,366,366,366,319,318,0,0,0,0,0,0,0,
0,0,0,0,0,0,0,0,0,0,0,0,0,0,0,0,0,0,0,0,0,0,0,0,0,0,0,0,0,0,0,0,0,0,316,321,366,366,366,366,366,366,366,366,366,366,366,366,366,366,366,366,366,366,366,366,366,366,366,366,366,366,366,366,366,366,366,366,366,366,366,319,318,0,0,0,0,0,0,0,
0,0,0,0,0,0,0,0,0,0,0,0,0,0,0,0,0,0,0,0,0,0,0,0,0,0,0,0,0,0,0,0,0,0,316,321,366,366,366,366,366,366,366,366,366,366,366,366,366,366,366,366,366,366,366,366,366,366,366,366,366,366,366,366,366,366,366,366,366,366,366,319,318,0,0,0,0,0,0,0,
0,0,0,0,0,0,0,0,0,0,0,0,0,0,0,0,0,0,0,0,0,0,0,0,0,0,0,0,0,0,0,0,0,0,316,321,366,366,366,366,366,366,366,366,366,366,366,366,366,366,366,366,366,366,366,366,366,366,366,366,366,366,366,366,366,366,366,366,366,366,366,319,318,0,0,0,0,0,0,0,
0,0,0,0,0,0,0,0,0,0,0,0,0,0,0,0,0,0,0,0,0,0,0,0,0,0,0,0,0,0,0,0,0,0,316,321,366,366,366,366,366,366,366,366,366,366,366,366,366,366,366,366,366,366,366,366,366,366,366,366,366,366,366,366,366,366,366,366,366,366,366,319,318,0,0,0,0,0,0,0,
0,0,0,0,0,0,0,0,0,0,0,0,0,0,0,0,0,0,0,0,0,0,0,0,0,0,0,0,0,0,0,0,0,0,316,321,366,366,366,366,366,366,366,366,366,366,366,366,366,366,366,366,366,366,366,366,366,366,366,366,366,366,366,366,366,366,366,366,366,366,366,319,318,0,0,0,0,0,0,0
</data>
 </layer>
 <layer id="3" name="Base" width="80" height="80">
  <data encoding="csv">
0,0,0,0,0,0,0,0,0,0,0,0,0,0,0,0,0,0,0,0,0,0,0,0,0,0,0,0,0,0,0,0,0,0,0,0,0,0,0,0,0,0,0,0,0,0,0,0,0,0,0,0,0,0,0,0,0,0,0,0,0,0,0,0,0,0,0,0,0,0,0,0,0,0,0,0,0,0,0,0,
0,0,0,0,0,0,0,0,0,0,0,0,0,0,0,0,0,0,0,0,0,0,0,0,0,0,0,0,0,0,0,0,0,0,0,0,0,0,0,0,0,0,0,0,0,0,0,0,0,0,0,0,0,0,0,0,0,0,0,0,0,0,0,0,0,0,0,169,170,170,170,170,170,171,0,0,0,0,0,0,
0,0,0,0,0,0,0,0,0,0,0,0,0,0,0,0,0,0,0,0,0,0,0,0,0,0,0,0,0,0,0,0,0,0,0,0,0,0,0,0,0,0,0,0,0,0,0,0,0,0,0,0,0,0,0,0,0,0,0,0,0,0,0,0,0,0,169,150,191,191,191,191,191,149,170,170,171,0,0,0,
0,0,0,0,0,0,0,0,0,0,0,0,0,0,0,0,0,0,0,0,0,0,0,0,0,0,0,0,0,0,0,0,0,0,0,0,0,0,0,0,0,0,0,0,0,0,0,0,0,0,0,0,0,0,0,0,0,0,0,0,0,0,0,0,0,169,150,191,191,191,191,191,191,191,191,191,149,171,0,0,
0,0,0,0,0,0,0,0,0,0,0,0,0,0,0,0,0,0,0,0,0,0,0,0,0,0,0,0,0,0,0,0,0,0,0,0,0,0,0,0,0,0,0,0,0,0,0,0,0,0,0,0,0,0,0,0,0,0,0,0,0,0,0,0,169,150,191,191,191,191,191,191,191,191,191,191,191,149,171,0,
0,0,0,0,0,0,0,0,0,0,0,0,0,0,0,0,0,0,0,0,0,0,0,0,0,0,0,0,0,0,0,0,0,0,0,0,0,0,0,0,0,0,0,0,0,0,0,0,0,0,0,0,0,0,0,0,0,0,0,0,0,0,0,0,190,191,191,191,191,191,191,191,191,191,191,191,191,191,192,0,
0,0,0,0,0,0,0,0,0,0,0,0,0,0,0,0,0,0,0,0,0,0,0,0,0,0,0,0,0,0,0,0,0,0,0,0,0,0,0,0,0,0,0,0,0,0,0,0,0,0,0,0,0,0,0,0,0,0,0,0,0,0,0,0,190,191,191,191,191,191,191,191,191,191,191,191,191,191,192,0,
0,0,0,0,0,0,0,0,0,0,0,0,0,0,0,0,0,0,0,0,0,0,0,0,0,0,0,0,0,0,0,0,0,0,0,0,0,0,0,0,0,0,0,0,0,0,0,0,0,0,0,0,0,0,0,0,0,0,0,0,0,0,0,169,150,191,191,191,191,191,191,191,191,191,191,191,191,191,149,171,
0,0,0,0,0,0,0,0,0,0,0,0,0,0,0,0,0,0,0,0,0,0,0,0,0,0,0,0,0,0,0,0,0,0,0,0,0,0,0,0,0,0,0,0,0,0,0,0,0,0,0,0,0,0,0,0,0,0,0,0,0,0,0,190,191,191,191,191,191,191,191,191,191,191,191,191,191,191,128,213,
0,0,0,0,0,0,0,0,0,0,0,0,0,0,0,0,0,0,0,0,0,0,0,0,0,0,0,0,0,0,0,0,0,0,0,0,0,0,0,0,0,0,0,0,0,0,0,0,0,0,0,0,0,0,0,0,0,0,0,0,0,0,0,190,191,191,191,191,191,191,191,191,191,191,191,191,191,191,192,0,
0,0,0,0,0,0,0,0,0,0,0,0,0,0,0,0,0,0,0,0,0,0,0,0,0,0,0,0,0,0,0,0,0,0,0,0,0,0,0,0,0,0,0,0,0,0,0,0,0,0,0,0,0,0,0,0,0,0,0,0,0,0,0,211,129,191,191,191,191,191,191,191,191,191,191,191,191,191,192,0,
0,0,0,0,0,0,0,0,0,0,0,0,0,0,0,0,0,0,0,0,0,0,0,0,0,0,0,0,0,0,0,0,0,0,0,0,0,0,0,0,0,0,0,0,0,0,0,0,0,0,0,0,0,0,0,0,0,0,0,0,0,0,0,0,190,191,191,191,191,191,191,191,191,191,191,191,191,128,213,0,
0,0,0,0,0,0,0,0,0,0,0,0,0,0,0,0,0,0,0,0,0,0,0,0,0,0,0,0,0,0,0,0,0,0,0,0,0,0,0,0,0,0,0,0,0,0,0,0,0,0,0,0,0,0,0,0,0,0,0,0,0,0,0,0,211,129,191,191,191,191,191,191,191,191,191,191,191,192,0,0,
0,0,0,0,0,0,0,0,0,0,0,0,0,0,0,0,0,0,0,0,0,0,0,0,0,0,0,0,0,0,0,0,0,0,0,0,0,0,0,0,0,0,0,0,0,0,0,0,0,0,0,0,0,0,0,0,0,0,0,0,0,0,0,0,0,211,212,212,129,191,191,191,191,191,191,128,212,213,0,0,
0,0,0,0,0,0,0,0,0,0,0,0,0,0,0,0,0,0,0,0,0,0,0,0,0,0,0,0,0,0,0,0,0,0,0,0,0,0,0,0,0,0,0,0,0,0,0,0,0,0,0,0,0,0,0,0,0,0,0,0,0,0,0,0,0,0,0,0,211,212,212,212,212,212,212,213,0,0,0,0,
0,0,0,0,0,0,0,0,0,0,0,0,0,0,0,0,0,0,0,0,0,0,0,0,0,0,0,0,0,0,0,0,0,0,0,0,0,0,0,0,0,0,0,0,0,0,0,0,0,0,0,0,0,0,0,0,0,0,0,0,0,0,0,0,0,0,0,0,0,0,0,0,0,0,0,0,0,0,0,0,
0,0,0,0,0,0,0,0,0,0,0,0,0,0,0,0,0,0,0,0,0,0,0,0,0,0,0,0,0,0,0,0,0,0,0,0,0,0,0,0,0,0,0,0,0,0,0,0,0,0,0,0,0,0,0,0,0,0,0,0,0,0,0,0,0,0,0,0,0,0,0,0,0,0,0,0,0,0,0,0,
0,0,0,0,0,0,0,0,0,0,0,0,0,0,0,0,0,0,0,0,0,0,0,0,0,0,0,0,0,0,169,170,170,171,169,170,170,171,0,0,0,0,0,0,0,0,169,170,171,0,0,0,0,0,0,0,0,0,0,0,0,0,0,0,0,0,0,0,0,0,0,0,0,0,0,0,0,0,0,0,
0,0,0,0,0,0,0,0,0,0,0,0,0,0,0,0,0,0,0,0,0,0,0,0,0,0,0,169,170,170,150,191,191,149,150,191,191,149,170,170,170,171,0,169,170,170,150,191,192,0,0,0,0,0,0,0,0,0,0,0,0,0,0,0,0,0,0,0,0,0,0,0,0,0,0,0,0,0,0,0,
0,0,0,0,0,0,0,0,0,0,0,0,0,0,0,0,0,0,0,0,0,0,0,0,0,0,0,190,191,191,191,191,191,191,191,191,191,191,191,191,191,149,170,150,191,191,191,191,149,171,0,0,0,0,0,0,0,0,0,0,0,0,0,0,0,0,0,0,0,0,0,0,0,0,0,0,0,0,0,0,
0,0,0,0,0,0,0,0,0,0,0,0,0,0,0,0,0,0,0,0,0,0,0,169,170,170,170,150,191,191,191,191,191,191,191,191,191,191,191,191,191,191,191,191,191,191,191,191,191,149,171,0,0,0,0,0,0,0,0,0,0,0,0,0,0,0,0,0,0,0,0,0,0,0,0,0,0,0,0,0,
0,0,0,0,0,0,0,0,0,0,0,0,0,0,0,0,0,0,0,0,0,0,0,190,191,191,191,191,191,191,191,191,191,191,191,191,191,191,191,191,191,191,191,191,191,191,191,191,191,191,149,170,171,0,0,0,0,0,0,0,0,0,0,0,0,0,0,0,0,0,0,0,0,0,0,0,0,0,0,0,
0,0,0,0,0,0,0,0,0,0,0,0,0,0,0,0,0,0,0,0,0,0,169,150,191,191,191,191,191,191,191,191,191,191,191,191,191,191,191,191,191,191,191,191,191,191,191,191,191,191,191,191,149,170,170,171,0,0,0,0,0,0,0,0,0,0,0,0,0,0,0,0,0,0,0,0,0,0,0,0,
0,0,0,0,0,0,0,0,0,0,0,0,0,0,0,0,0,0,0,0,0,0,190,191,191,191,191,191,191,191,191,191,191,191,191,191,191,191,191,191,191,191,191,191,191,191,191,191,191,191,191,191,191,191,191,149,171,0,0,0,0,0,0,0,0,0,0,0,0,0,0,0,0,0,0,0,0,0,0,0,
0,0,0,0,0,0,0,0,0,0,0,0,0,0,0,0,0,0,0,0,0,169,150,191,191,191,191,191,191,191,191,191,191,191,191,191,191,191,191,191,191,191,191,191,191,191,191,191,191,191,191,191,191,191,191,191,192,0,0,0,0,0,0,0,0,0,0,0,0,0,0,0,0,0,0,0,0,0,0,0,
0,0,0,0,0,0,0,0,0,0,0,0,0,0,0,0,0,0,0,0,169,150,191,191,191,191,191,191,191,191,191,191,191,191,191,191,191,191,191,191,191,191,191,191,191,191,191,191,191,191,191,191,191,191,191,191,192,0,0,0,0,0,0,0,0,0,0,0,0,0,0,0,0,0,0,0,0,0,0,0,
0,0,0,0,0,0,0,0,0,0,0,0,0,0,0,0,0,0,0,169,150,191,191,191,191,191,191,191,191,191,191,191,301,302,302,302,303,191,191,191,191,191,191,191,191,191,191,191,191,191,191,191,191,191,191,191,192,0,0,0,0,0,0,0,0,0,0,0,0,0,0,0,0,0,0,0,0,0,0,0,
0,0,0,0,0,0,0,0,0,0,0,0,0,0,0,0,0,0,0,190,191,191,191,191,191,191,191,191,191,191,191,301,282,323,323,323,281,303,191,191,191,191,191,191,191,191,191,191,191,191,191,191,191,191,191,191,192,0,0,0,0,0,0,0,0,0,0,0,0,0,0,0,0,0,0,0,0,0,0,0,
0,0,0,0,0,0,0,0,0,0,0,0,0,0,0,0,0,0,0,190,191,191,191,191,191,191,191,191,191,191,301,282,323,323,323,323,323,281,303,191,191,191,191,191,191,191,191,191,191,191,191,191,191,191,191,191,192,0,0,0,0,0,0,0,0,0,0,0,0,0,0,0,0,0,0,0,0,0,0,0,
0,0,0,0,0,0,0,0,0,0,0,0,0,0,0,0,0,0,0,190,191,191,191,191,191,191,191,191,191,191,322,323,323,323,323,323,323,323,324,191,191,191,191,191,191,191,191,191,191,191,191,191,191,191,191,191,192,0,0,0,0,0,0,0,0,0,0,0,0,0,0,0,0,0,0,0,0,0,0,0,
0,0,0,0,0,0,0,0,0,0,0,0,0,0,0,0,0,0,0,190,191,191,191,191,191,191,191,191,191,191,322,323,323,323,323,323,323,260,345,191,191,191,191,191,191,191,191,191,191,191,191,191,191,191,191,191,192,0,0,0,0,0,0,0,0,0,0,0,0,0,0,0,0,0,0,0,0,0,0,0,
0,0,0,0,0,0,0,0,0,0,0,0,0,0,0,0,0,0,0,211,129,191,191,191,191,191,191,191,191,191,343,261,323,323,323,323,260,345,191,191,191,191,191,191,191,191,191,191,191,191,191,191,191,191,191,191,149,171,0,0,0,0,0,0,0,0,0,0,0,0,0,0,0,0,0,0,0,0,0,0,
0,0,0,0,0,0,0,0,0,0,0,0,0,0,0,0,0,0,0,0,190,191,191,191,191,191,191,191,191,191,191,343,261,323,323,260,345,191,191,191,191,191,191,191,191,191,191,191,191,191,191,191,191,191,191,191,191,192,0,0,0,0,0,0,0,0,0,0,0,0,0,0,0,0,0,0,0,0,0,0,
0,0,0,0,0,0,0,0,0,0,0,0,0,0,0,0,0,0,0,0,190,191,191,191,191,191,191,191,191,191,191,191,343,344,344,345,191,191,191,191,191,191,191,191,191,191,191,191,191,191,191,191,191,191,191,191,128,213,0,0,0,0,0,0,0,0,0,0,0,0,0,0,0,0,0,0,0,0,0,0,
0,0,0,0,0,0,0,0,0,0,0,0,0,0,0,0,0,0,0,0,211,129,191,191,191,191,191,191,191,191,191,191,191,191,191,191,191,191,191,191,191,191,191,191,191,191,191,191,191,191,191,191,191,191,191,128,213,0,0,0,0,0,0,0,0,0,0,0,0,0,0,0,0,0,0,0,0,0,0,0,
0,0,0,0,0,0,0,0,0,0,0,0,0,0,0,0,0,0,0,0,0,211,129,191,191,191,191,191,191,191,191,191,191,191,191,191,191,191,191,191,191,191,191,191,191,191,191,191,191,191,191,191,191,191,191,192,0,0,0,0,0,0,0,0,0,0,0,0,0,0,0,0,0,0,0,0,0,0,0,0,
0,0,0,0,0,0,0,0,0,0,0,0,0,0,0,0,0,0,0,0,0,0,190,191,191,191,191,191,191,191,191,191,191,191,191,191,191,191,191,191,191,191,191,191,191,191,191,191,191,191,191,191,191,191,128,213,0,0,0,0,0,0,0,0,0,0,0,0,0,0,0,0,0,0,0,0,0,0,0,0,
0,0,0,0,0,0,0,0,0,0,0,0,0,0,0,0,0,0,0,0,0,0,211,212,129,191,191,191,191,191,191,191,191,191,191,191,191,191,191,191,191,191,191,191,191,191,191,191,191,191,191,191,191,128,213,0,0,0,0,0,0,0,0,0,0,0,0,0,0,0,0,0,0,0,0,0,0,0,0,0,
0,0,0,0,0,0,0,0,0,0,0,0,0,0,0,0,0,0,0,0,0,0,0,0,211,212,129,191,191,191,191,191,191,191,191,191,191,191,191,191,191,191,191,191,191,191,191,191,191,191,191,128,212,213,0,0,0,0,0,0,0,0,0,0,0,0,0,0,0,0,0,0,0,0,0,0,0,0,0,0,
0,0,0,0,0,0,0,0,0,0,0,0,0,0,0,0,0,0,0,0,0,0,0,0,0,0,211,129,191,191,191,191,191,191,191,191,191,191,191,191,191,191,191,191,191,191,191,191,191,191,128,213,0,0,0,0,0,0,0,0,0,0,0,0,0,0,0,0,0,0,0,0,0,0,0,0,0,0,0,0,
0,0,0,0,169,170,170,171,0,0,0,0,0,0,0,0,0,0,0,0,0,0,0,0,0,0,0,211,212,129,191,191,191,191,191,191,191,191,191,191,191,191,191,191,191,191,191,191,191,128,213,0,0,0,0,0,0,0,0,0,0,0,0,0,0,0,0,0,0,0,0,0,0,0,0,0,0,0,0,0,
0,0,0,0,190,191,191,149,171,0,169,171,0,0,0,0,0,0,0,0,0,0,0,0,0,0,0,0,0,211,212,212,212,129,191,191,191,191,191,191,191,191,191,191,191,191,128,212,212,213,0,0,0,0,0,0,0,0,0,0,0,0,0,0,0,0,0,0,0,0,0,0,0,0,0,0,0,0,0,0,
0,0,169,170,150,191,191,191,149,170,150,149,171,169,170,171,0,0,0,0,0,0,0,0,0,0,0,0,0,0,0,0,0,211,212,212,212,212,212,212,212,212,212,212,212,212,213,0,0,0,0,0,0,0,0,0,0,0,0,0,0,0,0,0,0,0,0,0,0,0,0,0,0,0,0,0,0,0,0,0,
0,0,190,191,191,191,191,191,191,191,191,191,149,150,191,192,0,0,0,0,0,0,0,0,0,0,0,0,0,0,0,0,0,0,0,0,0,0,0,0,0,0,0,0,0,0,0,0,0,0,0,0,0,0,0,0,0,0,0,0,0,0,0,0,0,0,0,0,0,0,0,0,0,0,0,0,0,0,0,0,
0,169,150,191,191,191,191,191,191,191,191,191,191,191,191,192,0,0,0,0,0,0,0,0,0,0,0,0,0,0,0,0,0,0,0,0,0,0,0,0,0,0,0,0,0,0,0,0,0,0,0,0,0,0,0,0,0,0,0,0,0,0,0,0,0,0,0,0,0,0,0,0,0,0,0,0,0,0,0,0,
169,150,191,191,191,191,191,191,191,191,191,191,191,191,191,149,170,171,0,0,0,0,0,0,0,0,0,0,0,0,0,0,0,0,0,0,0,0,0,0,0,0,0,0,0,0,0,0,0,0,0,0,0,0,0,0,0,0,0,0,0,0,0,0,0,0,0,0,0,0,0,0,0,0,0,0,0,0,0,0,
150,191,191,191,191,191,191,191,191,191,191,191,191,191,191,191,191,149,171,0,0,0,0,0,0,0,0,0,0,0,0,0,0,0,0,0,0,0,0,0,0,0,0,0,0,0,0,0,0,0,0,0,0,0,0,0,0,0,0,0,0,0,0,0,169,170,170,171,0,0,0,0,0,0,0,0,0,0,0,0,
191,191,191,191,191,191,191,191,191,191,191,191,191,191,191,191,191,191,192,0,0,0,0,0,0,0,0,0,0,0,0,0,0,0,0,0,0,0,0,0,0,0,0,0,0,0,0,0,0,0,0,0,0,0,169,170,170,170,170,170,170,170,170,170,150,191,191,149,170,171,0,0,0,0,0,0,0,0,0,0,
191,191,191,191,191,191,191,191,191,191,191,191,191,191,191,191,191,191,149,171,0,0,0,0,0,0,0,0,0,0,0,0,0,0,0,0,0,0,0,0,0,0,0,0,0,0,0,0,0,0,169,170,170,170,150,191,191,191,191,191,191,191,191,191,191,191,191,191,191,192,0,0,0,0,0,0,0,0,0,0,
191,191,191,191,191,191,191,191,191,191,191,191,191,191,191,191,191,191,191,192,0,0,0,0,0,0,0,0,0,0,0,0,0,0,0,0,0,0,0,0,0,0,0,0,0,0,169,170,170,170,150,191,191,191,191,191,191,191,191,191,191,191,191,191,191,191,191,191,191,149,171,0,0,0,0,0,0,0,0,0,
191,191,191,191,191,191,191,191,191,191,191,191,191,191,191,191,191,191,191,149,170,171,0,0,0,0,0,0,0,0,0,0,0,0,0,0,0,0,0,0,0,0,0,0,169,170,150,191,191,191,191,191,191,191,191,191,191,191,191,191,191,191,191,191,191,191,191,191,191,191,192,0,0,0,0,0,0,0,0,0,
191,191,191,191,191,191,191,191,191,191,191,191,191,191,191,191,191,191,191,191,191,192,0,0,0,0,0,0,0,0,0,0,0,0,0,0,0,0,0,0,0,0,169,170,150,191,191,191,191,191,191,191,191,191,191,191,191,191,191,191,191,191,191,191,191,191,191,191,191,191,192,0,0,0,0,0,0,0,0,0,
191,191,191,191,191,191,191,191,191,191,191,191,191,191,191,191,191,191,191,191,128,213,0,0,0,0,0,0,0,0,0,0,0,0,0,0,0,0,0,0,169,170,150,191,191,191,191,191,191,191,191,191,191,191,191,191,191,191,191,191,191,191,191,191,191,191,191,191,191,191,192,0,0,0,0,0,0,0,0,0,
191,191,191,191,191,191,191,191,191,191,191,191,191,191,191,191,191,191,191,191,192,0,0,0,0,0,0,0,0,0,0,0,0,0,0,0,0,0,169,170,150,191,191,191,191,191,191,191,191,191,191,191,191,191,191,191,191,191,191,191,191,191,191,191,191,191,191,191,191,128,213,0,0,0,0,0,0,0,0,0,
191,191,191,191,191,191,191,191,191,191,191,191,191,191,191,191,191,191,191,128,213,0,0,0,0,0,0,0,0,0,0,0,0,0,0,0,0,169,150,191,191,191,191,191,191,191,191,191,191,191,191,191,191,191,191,191,191,191,191,191,191,191,191,191,191,191,191,191,128,213,0,0,0,0,0,0,0,0,0,0,
191,191,191,191,191,191,191,191,191,191,191,191,191,191,191,191,191,191,191,192,0,0,0,0,0,0,0,0,0,0,0,0,0,0,0,0,169,150,191,191,191,191,191,191,191,191,191,191,191,191,191,191,191,191,191,191,191,191,191,191,191,191,191,191,191,191,191,191,192,0,0,0,0,0,0,0,0,0,0,0,
191,191,191,191,191,191,191,191,191,191,191,191,191,191,191,191,191,191,191,192,0,0,0,0,0,0,0,0,0,0,0,0,0,0,0,169,150,191,191,191,191,191,191,191,191,191,191,191,191,191,191,191,191,191,191,191,191,191,191,191,191,191,191,191,191,191,191,191,192,0,0,0,0,0,0,0,0,0,0,0,
191,191,191,191,191,191,191,191,191,191,191,191,191,191,191,191,191,191,191,192,0,0,0,0,0,0,0,0,0,0,0,0,0,0,0,190,191,191,191,191,191,191,191,191,191,191,191,191,191,191,191,191,191,191,191,191,191,191,191,191,191,191,191,191,191,191,191,191,192,0,0,0,0,0,0,0,0,0,0,0,
191,191,191,191,191,191,191,191,191,191,191,191,191,191,191,191,191,191,128,213,0,0,0,0,0,0,0,0,0,0,0,0,0,0,0,190,191,191,191,191,191,191,191,191,191,191,191,191,191,191,191,191,191,191,191,191,191,191,191,191,191,191,191,191,191,191,191,191,192,0,0,0,0,0,0,0,0,0,0,0,
191,191,191,191,191,191,191,191,191,191,191,191,191,191,191,191,191,191,192,0,0,0,0,0,0,0,0,0,0,0,0,0,0,0,0,190,191,191,191,191,191,191,191,191,191,191,191,191,191,191,191,191,191,191,191,191,191,191,191,191,191,191,191,191,191,191,191,191,192,0,0,0,0,0,0,0,0,0,0,0,
191,191,191,191,191,191,191,191,191,191,191,191,191,191,191,191,191,191,192,0,0,0,0,0,0,0,0,0,0,0,0,0,0,0,0,190,191,191,191,191,191,191,191,191,191,191,191,191,191,191,191,191,191,191,191,191,191,191,191,191,191,191,191,191,191,191,191,191,192,0,0,0,0,0,0,0,0,0,0,0,
191,191,191,191,191,191,191,191,191,191,191,191,191,191,191,191,191,128,213,0,0,0,0,0,0,0,0,0,0,0,0,0,0,0,0,190,191,191,191,191,191,191,191,191,191,191,191,191,191,191,191,191,191,191,191,191,191,191,191,191,191,191,191,191,191,191,191,191,192,0,0,0,0,0,0,0,0,0,0,0,
191,191,191,191,191,191,191,191,191,191,191,191,191,191,191,191,128,213,0,0,0,0,0,0,0,0,0,0,0,0,0,0,0,0,0,190,191,191,191,191,191,191,191,191,191,191,191,191,191,191,191,191,191,191,191,191,191,191,191,191,191,191,191,191,191,191,191,191,192,0,0,0,0,0,0,0,0,0,0,0,
191,191,191,191,191,191,191,191,191,191,191,191,191,191,191,191,192,0,0,0,0,0,0,0,0,0,0,0,0,0,0,0,0,0,0,190,191,191,191,191,191,191,191,191,191,191,191,191,191,191,191,191,191,191,191,191,191,191,191,191,191,191,191,191,191,191,191,191,192,0,0,0,0,0,0,0,0,0,0,0,
191,191,191,191,191,191,191,191,191,191,191,191,191,191,191,191,192,0,0,0,0,0,0,0,0,0,0,0,0,0,0,0,0,0,0,190,191,191,191,191,191,191,191,191,191,191,191,191,191,191,191,191,191,191,191,191,191,191,191,191,191,191,191,191,191,191,191,191,192,0,0,0,0,0,0,0,0,0,0,0,
191,191,191,191,191,191,191,191,191,191,191,191,191,191,191,128,213,0,0,0,0,0,0,0,0,0,0,0,0,0,0,0,0,0,0,211,212,129,191,191,191,191,191,191,191,191,191,191,191,191,191,191,191,191,191,191,191,191,191,191,191,191,191,191,191,191,128,212,213,0,0,0,0,0,0,0,0,0,0,0,
191,191,191,191,191,191,191,191,191,191,191,191,191,191,191,192,0,0,0,0,0,0,0,0,0,0,0,0,0,0,0,0,0,0,0,0,0,190,191,191,191,191,191,191,191,191,191,191,191,191,191,191,191,191,191,191,191,191,191,191,191,191,191,128,212,212,213,0,0,0,0,0,0,0,0,0,0,0,0,0,
191,191,191,191,191,191,191,191,191,191,191,191,191,191,128,213,0,0,0,0,0,0,0,0,0,0,0,0,0,0,0,0,0,0,0,0,0,211,129,191,191,191,191,191,191,191,191,191,191,191,191,191,191,191,191,191,191,191,191,191,191,191,128,213,0,0,0,0,0,0,0,0,0,0,0,0,0,0,0,0,
191,191,191,191,191,191,191,191,191,191,191,191,191,191,192,0,0,0,0,0,0,0,0,0,0,169,170,171,0,0,0,0,0,0,0,0,0,0,190,191,191,191,191,191,191,191,191,191,191,191,191,191,191,191,191,191,191,191,191,191,128,212,213,0,0,0,0,0,0,0,0,0,0,0,0,0,0,0,0,0,
191,191,191,191,191,191,191,191,191,191,191,191,191,191,149,171,0,0,0,0,0,0,0,169,170,150,191,192,0,0,0,0,0,0,0,0,0,0,211,129,191,191,191,191,191,191,191,191,191,191,191,191,128,212,212,212,212,212,212,212,213,0,0,0,0,0,0,0,0,0,0,0,0,0,0,0,0,0,0,0,
191,191,191,191,191,191,191,191,191,191,191,191,191,191,191,149,170,170,170,170,170,170,170,150,191,191,191,192,0,0,0,0,0,0,0,0,0,0,0,211,212,212,129,191,191,191,191,191,191,191,128,212,213,0,0,0,0,0,0,0,0,0,0,0,0,0,0,0,0,0,0,0,0,0,0,0,0,0,0,0,
191,191,191,191,191,191,191,191,191,191,191,191,191,191,191,191,191,191,191,191,191,191,191,191,191,191,191,192,0,0,0,0,0,0,0,0,0,0,0,0,0,0,211,212,212,212,212,212,212,212,213,0,0,0,0,0,0,0,0,0,0,0,0,0,0,0,0,0,0,0,0,0,0,0,0,0,0,0,0,0,
191,191,191,191,191,191,191,191,191,191,191,191,191,191,191,191,191,191,191,191,191,191,191,191,191,191,191,192,0,0,0,0,0,0,0,0,0,0,0,0,0,0,0,0,0,0,0,0,0,0,0,0,0,0,0,0,0,0,0,0,0,0,0,0,0,0,0,0,0,0,0,0,0,0,0,0,0,0,0,0,
191,191,191,191,191,191,191,191,191,191,191,191,191,191,191,191,191,191,191,191,191,191,191,191,191,191,191,192,0,0,0,0,0,0,0,0,0,0,0,0,0,0,0,0,0,0,0,0,0,0,0,0,0,0,0,0,0,0,0,0,0,0,0,0,0,0,0,0,0,0,0,0,0,0,0,0,0,0,0,0,
191,191,191,191,191,191,191,191,191,191,191,191,191,191,191,191,191,191,191,191,191,191,191,191,191,191,191,192,0,0,0,0,0,0,0,0,0,0,0,0,0,0,0,0,0,0,0,0,0,0,0,0,0,0,0,0,0,0,0,0,0,0,0,0,0,0,0,0,0,0,0,0,0,0,0,0,0,0,0,0,
191,191,191,191,191,191,191,191,191,191,191,191,191,191,191,128,212,212,212,212,212,212,212,129,191,191,191,192,0,0,0,0,0,0,0,0,0,0,0,0,0,0,0,0,0,0,0,0,0,0,0,0,0,0,0,0,0,0,0,0,0,0,0,0,0,0,0,0,0,0,0,0,0,0,0,0,0,0,0,0,
191,191,191,191,191,191,191,191,191,191,191,128,212,212,212,213,0,0,0,0,0,0,0,211,212,129,191,192,0,0,0,0,0,0,0,0,0,0,0,0,0,0,0,0,0,0,0,0,0,0,0,0,0,0,0,0,0,0,0,0,0,0,0,0,0,0,0,0,0,0,0,0,0,0,0,0,0,0,0,0,
191,128,212,212,129,191,191,191,191,128,212,213,0,0,0,0,0,0,0,0,0,0,0,0,0,211,212,213,0,0,0,0,0,0,0,0,0,0,0,0,0,0,0,0,0,0,0,0,0,0,0,0,0,0,0,0,0,0,0,0,0,0,0,0,0,0,0,0,0,0,0,0,0,0,0,0,0,0,0,0,
212,213,0,0,211,212,212,212,212,213,0,0,0,0,0,0,0,0,0,0,0,0,0,0,0,0,0,0,0,0,0,0,0,0,0,0,0,0,0,0,0,0,0,0,0,0,0,0,0,0,0,0,0,0,0,0,0,0,0,0,0,0,0,0,0,0,0,0,0,0,0,0,0,0,0,0,0,0,0,0,
0,0,0,0,0,0,0,0,0,0,0,0,0,0,0,0,0,0,0,0,0,0,0,0,0,0,0,0,0,0,0,0,0,0,0,0,0,0,0,0,0,0,0,0,0,0,0,0,0,0,0,0,0,0,0,0,0,0,0,0,0,0,0,0,0,0,0,0,0,0,0,0,0,0,0,0,0,0,0,0
</data>
 </layer>
 <objectgroup id="2" name="Objects"/>
</map>
