<?xml version="1.0" encoding="UTF-8"?>
<map version="1.10" tiledversion="1.12.0" orientation="orthogonal" renderorder="right-down" width="30" height="30" tilewidth="32" tileheight="32" infinite="0" nextlayerid="3" nextobjectid="1">
 <tileset firstgid="1" name="dungeon" tilewidth="32" tileheight="32" tilecount="320" columns="16">
  <image source="Dungeon_Tileset.png" width="512" height="640"/>
 </tileset>
 <tileset firstgid="321" source="../../../../../Users/fabis/Downloads/tilesets/Walls.tsx"/>
 <layer id="2" name="Base" width="30" height="30">
  <data encoding="csv">
0,0,0,0,0,0,0,0,0,0,0,0,0,0,0,0,0,0,0,0,0,0,0,0,0,0,0,0,0,0,
0,0,0,0,0,0,0,0,0,0,0,0,0,0,0,0,0,0,0,0,0,0,0,0,0,0,0,0,0,0,
0,0,0,0,0,0,0,0,0,0,0,0,0,0,0,0,0,0,0,0,0,0,0,0,0,0,0,0,0,0,
0,0,0,0,0,0,0,0,0,0,0,0,0,0,0,0,0,0,0,0,0,0,0,0,0,0,0,0,0,0,
0,0,0,0,0,0,0,0,0,0,0,0,0,0,0,0,0,0,0,0,0,0,0,0,0,0,0,0,0,0,
0,0,0,0,0,0,0,0,0,0,0,0,0,0,0,0,0,0,0,0,0,0,0,0,0,0,0,0,0,0,
0,0,0,0,0,0,0,0,0,0,0,0,0,0,0,0,0,0,0,0,0,0,0,0,0,0,0,0,0,0,
0,0,0,0,0,0,0,0,0,0,0,0,0,0,0,0,0,0,0,0,0,0,0,0,0,0,0,0,0,0,
0,0,0,0,0,0,0,0,0,0,0,0,0,0,0,0,0,0,0,0,0,0,0,0,0,0,0,0,0,0,
0,0,0,0,0,0,0,0,0,0,0,0,0,0,0,0,0,0,0,0,0,0,0,0,0,0,0,0,0,0,
0,0,0,0,0,0,0,0,0,0,0,0,0,0,0,0,0,0,0,0,0,0,0,0,0,0,0,0,0,0,
0,0,0,72,73,74,75,76,106,137,137,78,78,75,106,75,89,0,0,0,0,0,0,0,0,0,0,0,0,0,
0,0,0,106,105,94,94,137,89,106,90,105,105,108,94,94,106,0,0,0,0,0,0,0,0,0,0,0,0,0,
0,0,0,91,107,108,92,108,91,105,90,91,137,108,108,109,94,0,0,0,0,0,0,0,0,0,0,0,0,0,
0,0,0,93,137,90,137,94,107,107,107,94,107,89,93,89,109,0,0,0,0,0,0,0,0,0,0,0,0,0,
0,0,0,94,137,108,105,91,107,93,92,89,89,94,90,89,107,0,0,0,0,0,0,0,0,0,0,0,0,0,
0,0,0,92,91,107,137,110,90,109,94,89,90,108,106,94,108,0,0,0,0,0,0,0,0,0,0,0,0,0,
0,0,0,105,108,105,110,92,90,108,93,90,108,94,107,108,106,0,0,0,0,0,0,0,0,0,0,0,0,0,
0,0,0,107,94,109,94,89,105,105,92,106,110,91,89,91,106,0,0,0,0,0,0,0,0,0,0,0,0,0,
0,0,0,107,92,91,92,91,94,137,105,107,92,92,90,94,91,0,0,0,0,0,0,0,0,0,0,0,0,0,
0,0,0,0,90,0,0,0,0,89,105,89,0,0,0,0,0,0,0,0,0,0,0,0,0,0,0,0,0,0,
0,0,0,0,0,0,0,0,0,107,108,107,0,0,0,0,0,0,0,0,0,0,0,0,0,0,0,0,0,0,
0,0,0,0,0,0,0,0,0,92,92,90,0,0,0,0,0,0,0,0,0,0,0,0,0,0,0,0,0,0,
0,0,0,0,0,0,0,0,0,92,105,107,0,0,0,0,0,0,0,0,0,0,0,0,0,0,0,0,0,0,
0,0,0,0,0,0,0,0,0,0,0,0,0,0,0,0,0,0,0,0,0,0,0,0,0,0,0,0,0,0,
0,0,0,0,0,0,0,0,0,0,0,0,0,0,0,0,0,0,0,0,0,0,0,0,0,0,0,0,0,0,
0,0,0,0,0,0,0,0,0,0,0,0,0,0,0,0,0,0,0,0,0,0,0,0,0,0,0,0,0,0,
0,0,0,0,0,0,0,0,0,0,0,0,0,0,0,0,0,0,0,0,0,0,0,0,0,0,0,0,0,0,
0,0,0,0,0,0,0,0,0,0,0,0,0,0,0,0,0,0,0,0,0,0,0,0,0,0,0,0,0,0,
0,0,0,0,0,0,0,0,0,0,0,0,0,0,0,0,0,0,0,0,0,0,0,0,0,0,0,0,0,0
</data>
 </layer>
 <layer id="1" name="Tile Layer 1" width="30" height="30">
  <data encoding="csv">
0,0,0,0,0,0,0,0,0,0,0,0,0,0,0,0,0,0,0,0,0,0,0,0,0,0,0,0,0,0,
0,0,0,0,0,0,0,0,0,0,0,0,0,0,0,0,0,0,0,0,0,0,0,0,0,0,0,0,0,0,
0,0,0,0,0,0,0,0,0,0,0,0,0,0,0,0,0,0,0,0,0,0,0,0,0,0,0,0,0,0,
0,0,0,0,0,0,0,0,0,0,0,0,0,0,0,0,0,0,0,0,0,0,0,0,0,0,0,0,0,0,
0,0,0,0,0,0,0,0,0,0,0,0,0,0,0,0,0,0,0,0,0,0,0,0,0,0,0,0,0,0,
0,0,0,0,0,0,0,0,0,0,0,0,0,0,0,0,0,0,0,0,0,0,0,0,0,0,0,0,0,0,
0,0,0,0,0,0,0,0,0,0,0,0,0,0,0,0,0,0,0,0,0,0,0,0,0,0,0,0,0,0,
0,0,0,0,0,0,0,0,0,0,0,0,0,0,0,0,0,0,0,0,0,0,0,0,0,0,0,0,0,0,
0,0,0,0,0,0,0,0,0,0,0,0,0,0,0,0,0,0,0,0,0,0,0,0,0,0,0,0,0,0,
0,0,0,0,0,0,0,0,0,0,0,0,0,0,0,0,0,0,0,0,0,0,0,0,0,0,0,0,0,0,
0,0,0,4,5,5,5,5,8,8,9,5,5,5,5,5,6,0,0,0,0,0,0,0,0,0,0,0,0,0,
0,0,0,20,29,31,50,50,50,24,25,27,50,26,50,50,22,0,0,0,0,0,0,0,0,0,0,0,0,0,
0,0,0,19,0,0,0,0,0,89,0,0,0,243,0,213,17,0,0,0,0,0,0,0,0,0,0,0,0,0,
0,0,0,19,0,275,0,209,0,0,0,0,209,0,0,39,17,0,0,0,0,0,0,0,0,0,0,0,0,0,
0,0,0,19,0,0,0,225,0,0,0,0,225,0,0,39,17,0,0,0,0,0,0,0,0,0,0,0,0,0,
0,0,0,19,0,0,0,0,260,0,0,0,275,0,0,39,17,0,0,0,0,0,0,0,0,0,0,0,0,0,
0,0,0,19,0,242,0,209,0,0,0,0,209,0,0,39,17,0,0,0,0,0,0,0,0,0,0,0,0,0,
0,0,0,19,0,0,0,225,0,0,0,0,225,0,0,39,17,0,0,0,0,0,0,0,0,0,0,0,0,0,
0,0,0,19,212,0,241,0,0,0,0,0,0,0,0,259,17,0,0,0,0,0,0,0,0,0,0,0,0,0,
0,0,0,36,37,37,37,37,37,98,0,99,37,37,37,37,38,0,0,0,0,0,0,0,0,0,0,0,0,0,
0,0,0,52,53,53,53,53,53,114,0,115,53,53,53,53,54,0,0,0,0,0,0,0,0,0,0,0,0,0,
0,0,0,0,0,0,0,0,0,19,0,17,0,0,0,0,0,0,0,0,0,0,0,0,0,0,0,0,0,0,
0,0,0,0,0,0,0,0,0,19,0,17,0,0,0,0,0,0,0,0,0,0,0,0,0,0,0,0,0,0,
0,0,0,0,0,0,0,0,0,19,0,17,0,0,0,0,0,0,0,0,0,0,0,0,0,0,0,0,0,0,
0,0,0,0,0,0,0,0,0,51,0,49,0,0,0,0,0,0,0,0,0,0,0,0,0,0,0,0,0,0,
0,0,0,0,0,0,0,0,0,0,0,0,0,0,0,0,0,0,0,0,0,0,0,0,0,0,0,0,0,0,
0,0,0,0,0,0,0,0,0,0,0,0,0,0,0,0,0,0,0,0,0,0,0,0,0,0,0,0,0,0,
0,0,0,0,0,0,0,0,0,0,0,0,0,0,0,0,0,0,0,0,0,0,0,0,0,0,0,0,0,0,
0,0,0,0,0,0,0,0,0,0,0,0,0,0,0,0,0,0,0,0,0,0,0,0,0,0,0,0,0,0,
0,0,0,0,0,0,0,0,0,0,0,0,0,0,0,0,0,0,0,0,0,0,0,0,0,0,0,0,0,0
</data>
 </layer>
</map>
